!!!!SEGMENT: sonata23-1.krn
!!!COM: Beethoven, Ludwig van
!!!CDT: 1770-1827
!!!OTL: Piano Sonata no. 23 in F minor
!!!OTP: appassionata
!!!ODT: 1804-1805
!!!ODE: Comte Franz de Brunswick
!!!OMD: Allegro assai
!!!OPS: 57
!!!OMV: 1
**kern	**kern	**dynam
*staff2	*staff1	*staff1/2
*Ipiano	*Ipiano	*Ipiano
*clefF4	*clefG2	*
*k[b-e-a-d-]	*k[b-e-a-d-]	*
*f:	*f:	*
*M12/8	*M12/8	*
*MM144	*MM144	*
([4CC	(>[4c	pp
16CCLL]	16cLL]	.
16AAA-JJ	16A-JJ	.
=1	=1	=1
[2.FFF	[2.F	.
4.FFF]	4.F]	.
[4AAA-	[4A-	.
16AAA-LL]	16A-LL]	.
16CCJJ	16cJJ	.
=2	=2	=2
4.FF	4.f	.
[4AA-	[4a-	.
16AA-LL]	16a-LL>]	.
16CJJ	16ccJJ	.
4.F	4.ff	.
4.A-	4.f	.
=3	=3	=3
2.En 2.G 2.c)	[4.cc	.
.	4cc]	.
.	8ddn	.
.	(cc8q	.
2.F 2.A- 2.Bn	[4.ddTT)	.
.	8.ddL]	.
.	16ccL	.
.	16een	.
.	16ddJJ	.
=4	=4	=4
4En 4G 4c	4cc)	.
8r	8r	.
4r	4r	.
8r	8r	.
4r	4r	.
8r	8r	.
!LO:S:b	!LO:S:a	!
([4DD-X	([4d-X	.
16DD-LL]	16d-LL]	.
16BBB-JJ	16B-JJ	.
!!LO:LB:g=original
=5	=5	=5
[2.GGG-	[2.G-	.
4.GGG-]	4.G-]	.
[4BBB-	[4B-	.
16BBB-LL]	16B-LL]	.
16DD-JJ	16d-JJ	.
=6	=6	=6
4.GG-	4.g-	.
[4BB-	[4b-	.
16BB-LL]	16b-LL]	.
16D-JJ	16dd-JJ	.
4.G-	4.gg-	.
4.B-	4.g-	.
=7	=7	=7
2.F 2.A- 2.d-)	[4.dd-	.
.	4dd-]	.
.	8ee-	.
.	(dd-8q	.
2.G- 2.An 2.c	[4.ee-TT)	.
.	(8.ee-L]	.
.	16dd-L	.
.	16ff	.
.	16ee-JJ)	.
=8	=8	=8
4F 4A-X 4d-	4dd-)	.
8r	8r	.
4r	4r	.
8r	8r	.
2.r	2.r	.
*clefG2	*	*
=9	=9	=9
2.en 2.g	([4.cc	<
.	4cc]	.
.	8ddn	.
.	(8ccq	.
2.f 2.a- 2.bn	[4.ddT)	[
.	8.ddL]	>
.	16ccL	.
.	16een	.
.	16ddJJ	]
!!LO:LB:g=original
=10	=10	=10
4en 4g	4cc)	.
8r	8r	.
*clefF4	*	*
!	!	!LO:DY:a=2
8DD-'L	4r	p
8DD-'	.	.
8DD-'J	8r	.
4CC'	2.r	.
8r	.	.
4r	.	.
8r	.	.
*clefG2	*	*
=11	=11	=11
2.g 2.b-X 2.dd-X	([4.een	<
.	4ee]	.
.	8ff	.
2.a- 2.b- 2.dd-	[4.ffTT	[
.	8.ffL]	>
.	16eeL	.
.	16gg	.
.	16ffJJ	]
=12	=12	=12
4g 4b- 4dd-	4een)	.
8r	8r	.
*clefF4	*	*
!	!	!
!	!LO:TX:a:B:t=Poco rit.	!
!	!	!LO:DY:a=2
8DD-'L	4r	p
8DD-'	.	.
8DD-'J	8r	.
4CC'	4r	.
8r	8r	.
!	!	!LO:DY:rj:b
4r	8ee 8ggL	pp
.	8ee 8gg	.
8r	8ee 8ggJ	.
=13	=13	=13
4r	4gg 4bb-	.
8r	8r	.
8DD-'L	4r	.
8DD-'	.	.
8DD-'J	8r	.
!	!LO:TX:a:B:t=a Tempo	!
4CC'	4r	.
8r	8r	.
!	!	!LO:DY:rj
4r	8gg 8bb-L	f
.	8gg 8bb-	.
8r	8gg 8bb-J	.
!!LO:LB:g=original
=14	=14	=14
1.r	16eeen^LL	f
.	16bb-	.
.	16ggg	.
.	16eee	.
.	16bbb-	.
.	16gggJJ	.
.	16eeeLL	.
.	16ggg	.
.	16bb-	.
.	16eee	.
.	16gg	.
.	16bb-JJ	.
.	16eenLL	.
.	16gg	.
.	16b-	.
.	16ee	.
.	16g	.
.	16b-JJ	.
.	16enLL	.
.	16g	.
.	16B-	.
.	16e	.
.	16G	.
.	16B-JJ	.
=15	=15	=15
*^	*	*
16EnLL	4rEE	2.ryy	.
16G	.	.	.
16BB-	.	.	.
16EJJ	.	.	.
8rA	16GGGLL	.	.
.	16BBB-JJ	.	.
4rA	16EEnLL	.	.
.	16GG	.	.
.	16BB-	.	.
.	16D-JJ	.	.
!	!	!LO:TX:c:i:t=m.d.	!
16ELL	8rGG	.	.
16GJJ	.	.	.
8B-/	4rGG	4.ryy	.
8rA	.	.	.
8rA	8rGG	.	.
4.ryy	8FFF 8FF	8D-< 8A-< 8d-	f
.	8rGG	8rb	.
.	8rGG	8rb	.
*v	*v	*	*
=16	=16	=16
[2.EEn [2.C	[2.En< [2.G< [2.c	p
4.EE;<] 4.C;<]	4.E<;] 4.G<;] 4.c;]	.
[4CC/	[4c	p
16CCLL>]	16cLL]	.
16AAA-JJ	16A-JJ	.
!!LO:LB:g=original
=17	=17	=17
8FFF	8F	ff
8r	4F 4A- 4c 4f	.
[8FFF [8AAA- [8CC [8FF	.	.
8FFF] 8AAA-] 8CC] 8FF]	4A- 4c 4f 4a-	.
4FFF 4AAA- 4CC 4FF	.	.
.	4c 4f 4a- 4cc	.
4FFF 4AAA- 4CC 4FF	.	.
.	4f 4a- 4cc 4ff	.
[8FFF [8AAA- [8CC [8FF	.	.
8FFF] 8AAA-] 8CC] 8FF]	4a- 4cc 4ff 4aa-	.
4FFF 4CC 4FF	.	.
.	8cc 8ff 8aa- 8ccc	.
=18	=18	=18
[2.FFF [2.AAA- [2.CC [2.FF	[2.ff [2.aa- [2.ccc [2.fff	sf
4.FFF] 4.AAA-] 4.CC] 4.FF]	4.ff] 4.aa-] 4.ccc] 4.fff]	.
!LO:S:a	!LO:S:a	!
([4AAA-	([4A-	p
16AAA-LL]	16A-LL]	.
16CCJJ	16cJJ	.
=19	=19	=19
4.FF	4.f	.
[4AA-	[4a-	.
16AA-LL]	16a-LL>]	.
16CJJ	16ccJJ	.
4.F	4.ff	.
4.FF)	4.f)	.
=20	=20	=20
!	!LO:TX:a:i:t=g.	!
4r	8En 8G 8c	ff
!	!LO:TX:a:i:t=d.	!
.	4G 4en	.
[8EEn [8GG [8C	.	.
8EE] 8GG] 8C]	4c 4e 4g	.
4EE 4GG 4C	.	.
.	4e 4g 4cc	.
4EE 4GG 4C	.	.
.	4g 4cc 4een	.
[8EE [8GG [8C	.	.
8EE] 8GG] 8C]	4cc 4ee 4gg	.
4EE 4GG 4C	.	.
.	8ee 8gg 8ccc	.
*clefG2	*	*
!!LO:LB:g=original
=21	=21	=21
*	*^	*
(2.en 2.g	2.ryy	([4.cc	p
.	.	4cc]	.
.	.	8ddn	.
2.f) 2.a-	[4.ddT	2.bn	.
.	8.ddL]	.	.
.	16ccL	.	.
.	16een	.	.
.	16ddJJ)	.	.
*clefF4	*	*	*
*	*v	*v	*
=22	=22	=22
!	!LO:TX:c:i:rj:t=m.g.	!
4r	8En 8G 8c	ff
!	!LO:TX:a:i:t=m.d.	!
.	4G 4c 4en	.
[8EEn [8GG [8C	.	.
8EE] 8GG] 8C]	4c 4e 4g	.
4EE 4GG 4C	.	.
.	4e 4g 4cc	.
4EE 4GG 4C	.	.
.	4g 4cc 4een	.
[8EE [8GG [8C	.	.
8EE] 8GG] 8C]	4cc 4ee 4gg	.
4EE 4GG 4C	.	.
.	8ee 8gg 8ccc	.
*clefG2	*	*
=23	=23	=23
2.en 2.g	(>[4.cc	p
.	4cc]	.
.	8dd-X	.
.	(cc8q	.
!	!LO:TR:acc=-	!
[2.e- [2.g	[4.dd-TT)	.
.	4dd-]	.
.	16ccLL	.
.	16dd-JJ)	.
=24	=24	=24
8e-] 8gL]	4.gg 4.bb-	.
8ee-	.	.
8ee-J	.	.
8ee-L	4r	.
8ee-	.	.
8ee-J	8r	.
8ee-L	2.r	.
8ee-	.	.
8ee-J	.	.
8ee-L	.	.
8ee-	.	.
8ee-J	.	.
!!LO:LB:g=original
=25	=25	=25
8r	4.aa- 4.ccc-	.
8ee-L	.	.
8ee-J	.	.
8a- (8cc-L	4r	.
8ee-)	.	.
8ee-J	8r	.
8ee-L	2.r	.
8ee-	.	.
8ee-J	.	.
8ee-L	.	.
8ee-	.	.
8ee-J	.	.
=26	=26	=26
8r	1.aa- 1.ccc- (1.fff-	sfp
8ee-L	.	.
8ee-J	.	.
(8a- 8cc-L	.	.
8ee-)	.	.
8ee-J	.	.
(8a- 8cc-L	.	.
8ee-)	.	.
8ee-J	.	.
(8a- 8cc-L	.	.
8ee-)	.	.
8ee-J	.	.
=27	=27	=27
8g 8b-L	4gg 4bb- 4eee-)	.
8e-	.	.
8e-J	8r	.
8e-L	4r	.
8e-	.	.
8e-J	8r	.
8e-L	4r	.
8e-	.	.
8e-J	8r	.
8e-L	[4gg [4bb-	.
8e-	.	.
8e-J	16gg] 16bb-LL]	.
.	16gg 16bb-JJ	.
=28	=28	=28
8e-L	4aa- (4ccc-	.
8e-	.	.
8e-J	8gg 8bb-)	.
8e-L	4r	.
8e-	.	.
8e-J	8g 8b-	.
8e-L	4r	.
8e-	.	.
8e-J	8G 8B-	.
8B- 8d-L	8r	.
8e-	8.r	.
8e-J	.	.
.	16gg 16bb-	.
!!LO:LB:g=original
=29	=29	=29
8e-L	4bb- (4ddd-	.
8e-	.	.
8e-J	8aa- 8ccc-)	.
8e-L	4r	.
8e-	.	.
8e-J	8a- 8cc-	.
8e-L	4r	.
8e-	.	.
8e-J	8A- 8c-	.
8A- 8c-L	8r	.
8e-	8.r	.
8e-J	.	.
.	16aa- 16ccc-	.
=30	=30	=30
8r	1.aa- 1.ccc- ((1.fff-	sfp
8e-L	.	.
8e-J	.	.
8A- 8c-L	.	.
8e-	.	.
8e-J	.	.
8A- 8c-L	.	.
8e-	.	.
8e-J	.	.
8A- 8c-L	.	.
8e-	.	.
8e-J	.	.
*clefF4	*	*
=31	=31	=31
8r	4gg 4bb- 4eee-))	.
8e-L	.	.
8e-J	8r	.
8G 8B-L	4r	.
8e-	.	.
8e-J	8r	.
8r	2.g- 2.an 2.ee-	>
8e-L	.	.
8e-J	.	.
8G- 8AnL	.	.
8e-	.	.
8e-J	.	.
=32	=32	=32
8r	4f 4a-X 4ddn	.
8e-L	.	.
8e-J	8r	.
8F 8A-XL	4r	.
8e-	.	.
8e-J	8r	.
8r	4.en 4.gn 4.dd-	.
8e-L	.	.
8e-J	.	.
8En 8GnL	4r	.
8e-X	.	.
8e-J	8r	.
!!LO:LB:g=original
=33	=33	=33
8r	4.e- 4.g 4.dd-	pp
8E-L	.	.
8E-J	.	.
8E-L	4r	.
8E-	.	.
8E-J	8r	.
8E-L	2.r	.
8E-	.	.
8E-J	.	.
8E-L	.	.
8E-	.	.
8E-J	.	.
=34	=34	=34
8r	4.G 4.B- 4.d-	.
8EE-L	.	.
!	!	!LO:DY:b=2:rj
.	.	pp
8EE-J	.	.
8EE-L	4r	.
8EE-	.	.
8EE-J	8r	.
8EE-L	2.r	.
8EE-	.	.
8EE-J	.	.
8EE-L	.	.
8EE-	.	.
8EE-J	.	.
=35	=35	=35
!	!LO:TX:c:i:t=dolce e legato	!
(8AAA-L	2.r	.
8CC 8EE- 8AA-	.	.
8AAA-J	.	.
8CC 8EE- 8AA-L	.	.
8AAA-	.	.
8CC 8EE- 8AA-J	.	.
8AAA-L	4r	.
8CC 8EE- 8AA-	.	.
8AAA-J	8r	.
*	*clefF4	*
8CC 8EE- 8AA-L	[4C (>[4c	.
8AAA-	.	.
8CC 8EE- 8AA-J)	16C] 16cLL]	.
.	16E- 16e-JJ	.
*	*clefG2	*
=36	=36	=36
(8AAA-L	4.A- 4.a-	.
8CC 8EE- 8AA-	.	.
8AAA-J	.	.
8CC 8EE- 8AA-L	[4c [4cc	.
8AAA-	.	.
8CC 8EE- 8AA-J	16c] 16ccLL]	.
.	16A- 16a-JJ	.
8BBB-L	4.G 4.g	.
8DD- 8EE- 8BB-	.	.
8BBB-J	.	.
8DD- 8EE- 8BB-L	[4B- [4b-	.
8BBB-	.	.
8DD-) 8EE- 8BB-J	16B-] 16b-LL]	.
.	16G 16gJJ)	.
!!LO:LB:g=original
=37	=37	=37
(8CCL	4.A- (4.a-	.
8EE- 8AA- 8C	.	.
8CCJ	.	.
*	*clefF4	*
8EE- 8AA- 8CL	2.E- 2.e-)	.
8CC	.	.
8EE- 8AA- 8CJ	.	.
8CCL	.	.
8EE- 8AA- 8C	.	.
8CCJ	.	.
8AA-L	[4F ([4f	.
8DD-	.	.
8AA-J)	16F] 16fLL]	.
.	16D- 16d-JJ	.
=38	=38	=38
(8EE-L	4.C 4.c	.
8AA-	.	.
8EE-J	.	.
8AA-L	[4E- [4e-	.
8EE-	.	.
8AA-J	16E-] 16e-LL]	.
.	16C 16cJJ	.
8EE-L	4.BB- 4.B-	.
8GG	.	.
8EE-J	.	.
8GGL	[4E- [4e-	.
8EE-	.	.
8GGJ)	16E-] 16e-LL]	.
.	16D- 16d-JJ)	.
=39	=39	=39
(8AA-L<	(4.c	<
8C 8E- 8A-	.	.
8AA-J	.	.
8C 8E- 8A-L	2.e-)	.
8AA-	.	.
8C 8E- 8A-J	.	.
8AA-L<	.	.
8C 8E- 8A-	.	.
8AA-J	.	.
*	*clefG2	*
8C 8E- 8A-L	[4c (>[4cc	.
8AA-	.	.
8C 8E- 8A-J)	16c] 16ccLL]	.
.	16e- 16ee-JJ	.
=40	=40	=40
(8AA-L<	4.a- 4.aa-	.
8C 8E- 8A-	.	.
8AA-J	.	.
8C 8E- 8A-L	[4cc [4ccc	.
8AA-	.	.
8C 8E- 8A-J	16cc] 16cccLL]	.
.	16a- 16aa-JJ	.
8BB-L<	4.g 4.gg	.
8D- 8E- 8B-	.	.
8BB-J	.	.
8D- 8E- 8B-L	[4b- [4bb-	.
8BB-	.	.
8D- 8E- 8B-J)	16b-] 16bb-LL]	.
.	16g 16ggJJ)	.
!!LO:LB:g=original
=41	=41	=41
1.C 1.E- 1.A- 1.c	4.a- ((4.aa-	p
.	[2.e-\ [2.ee-\))	.
.	4.e-\] 4.ee-\]	.
=42	=42	=42
*^	*	*
(4.A-	1.D- 1.F-	4.f-/ ((4.ff-/	f
[2.B--)	.	[2.d- [2.dd-))	sf
4.B--]	.	4.d-] 4.dd-]	.
*v	*v	*	*
=43	=43	=43
1.E- 1.A- 1.c-	[2.cc-	p
.	4.cc-]	.
.	(4b-	.
.	8a-\)	.
=44	=44	=44
.	(an8q	.
1.E- 1.G 1.d-	1.b-t)	.
=45	=45	=45
.	(ff-8q	.
!	!LO:TR:acc=none	!
1.r	1.ee-t)	.
.	(16ddnqLL	.
.	16ee-qJJ)	.
=46	=46	=46
.	(fff-8q	.
!	!LO:TR:acc=none	!
1.r	1.eee-t)	.
.	(16dddnqLL	.
.	16eee-qJJ)	.
!!LO:LB:g=original
=47	=47	=47
!	!	!LO:DY:rj
1.r	8fff-L	pp
.	8eee-	.
.	8ddd-J	.
.	8ccc-L	.
.	8bb-	.
.	8aa-J	.
.	8ggL	.
.	8gg-	.
.	8ff-J	.
.	8ee-L	.
.	8dd-	.
.	8cc-J	.
=48	=48	=48
1.r	8b-L	.
.	8a-	.
.	8gnJ	.
.	8g-L	.
.	8f-	.
.	8e-J	.
.	8d-L	.
.	8c-	.
.	8B-J	.
*	*clefF4	*
.	8A-L	.
.	8Gn	.
.	8G-J	.
=49	=49	=49
2.r	8F-L	.
.	8E-	.
.	8D-J	.
.	8C-L	.
.	8BB-	.
.	8AA-J	.
4r	8GGnL	.
.	8GG-	.
8r	8FF-J	.
8EE-L	4r	.
.	.	.
8DD-	.	.
8CC-J	8r	.
=50	=50	=50
8BBB-L	1.r	.
8CC-	.	.
8DD-J	.	.
8EE-L	.	.
8FF-	.	.
8EE-J	.	.
8DD-L	.	.
8CC-	.	.
8BBB-J	.	.
8EE-L	.	.
8DDn	.	.
8EE-J	.	.
!!LO:LB:g=original
=51	=51	=51
16AAA-LL	16A-LL	f
16EE-	16E-	.
16AA-	16C-	.
16EE-	16E-	.
16AAA-	16A-	.
16EE-JJ	16E-JJ	.
16AAA-LL	16c-LL	.
16EE-	16E-	.
16AAA-	16B-	.
16EE-	16E-	.
16AAA-	16A-	.
16EE-JJ	16E-JJ	.
16AAA-LL	16A-LL	.
16EE-	16E-	.
16AA-	16C-	.
16EE-	16E-	.
16AAA-	16A-	.
16EE-JJ	16E-JJ	.
16AAA-LL	16c-LL	.
16EE-	16E-	.
16AAA-	16B-	.
16EE-	16E-	.
16AAA-	16A-	.
16EE-JJ	16E-JJ	.
*	*clefG2	*
=52	=52	=52
16AAA-LL	16f-LL	.
16FF-	16c-	.
16AA-	16A-	.
16FF-	16c-	.
16AAA-	16f-	.
16FF-JJ	16c-JJ	.
16AAA-LL	16a-LL	.
16FF-	16c-	.
16AAA-	16g-	.
16FF-	16c-	.
16AAA-	16f-	.
16FF-JJ	16c-JJ	.
16AAA-LL	16f-LL	.
16FF-	16c-	.
16AA-	16A-	.
16FF-	16c-	.
16AAA-	16f-	.
16FF-JJ	16c-JJ	.
16AAA-LL	16a-LL	.
16FF-	16c-	.
16AAA-	16g-	.
16FF-	16c-	.
16AAA-	16f-	.
16FF-JJ	16c-JJ	.
!!LO:LB:g=original
=53	=53	=53
[2.BBB-- [2.BB--	16dd-LL	ff
.	16ff-	.
.	16dd-	.
.	16ff-	.
.	16dd-	.
.	16ff-JJ	.
.	16dd-LL	.
.	16ff-	.
.	16dd-	.
.	16ff-	.
.	16dd-	.
.	16ff-JJ	.
4.BBB--] 4.BB--]	16dd-LL	.
.	16ff-	.
.	16dd-	.
.	16ff-	.
.	16dd-	.
.	16ff-JJ	.
8BBB-' 8BB-'L	16dd-LL	.
.	16ff-	.
8DD-'	16b-	.
.	16dd-	.
8FF-'J	16g	.
.	16b-JJ	.
=54	=54	=54
!	!	!LO:HP:b=2
8GG'L	16f-LL	<
.	16g	.
8BB-'	16d-	.
.	16f-	.
8D-'J	16B-	.
.	16d-JJ	.
8F-'L	16A-LL	.
.	16B-	.
8F-'	16d-	.
.	16B-	.
8F-'J	16A-	.
.	16B-JJ	.
!	!	!LO:DY:b=2
(4.F-	16r	[ sf
.	16A-LL	.
.	16d-	.
.	16B-	.
.	16A-	.
.	16d-JJ	.
4.E-)	16r	.
.	16GLL	.
.	16d-	.
.	16B-	.
.	16G	.
.	16d-JJ	.
!!LO:LB:g=original
=55	=55	=55
16AA-LL	16a-LL	f
16E-	16e-	.
16A-	16c-	.
16E-	16e-	.
16AA-	16a-	.
16E-JJ	16e-JJ	.
16AA-LL<	16cc-LL	.
16E-	16e-	.
16AA-	16b-	.
16E-	16e-	.
16AA-	16a-	.
16E-JJ	16e-JJ	.
16AA-LL	16a-LL	.
16E-	16e-	.
16A-	16c-	.
16E-	16e-	.
16AA-	16a-	.
16E-JJ	16e-JJ	.
16AA-LL<	16cc-LL	.
16E-	16e-	.
16AA-	16b-	.
16E-	16e-	.
16AA-	16a-	.
16E-JJ	16e-JJ	.
=56	=56	=56
16AA-LL	16ff-LL	.
16F-	16cc-	.
16A-	16a-	.
16F-	16cc-	.
16AA-	16ff-	.
16F-JJ	16cc-JJ	.
16AA-LL<	16aa-LL	.
16F-	16cc-	.
16AA-	16gg-	.
16F-	16cc-	.
16AA-	16ff-	.
16F-JJ	16cc-JJ	.
16AA-LL	16ff-LL	.
16F-	16cc-	.
16A-	16a-	.
16F-	16cc-	.
16AA-	16ff-	.
16F-JJ	16cc-JJ	.
16AA-LL<	16aa-LL	.
16F-	16cc-	.
16AA-	16gg-	.
16F-	16cc-	.
16AA-	16ff-	.
16F-JJ	16cc-JJ	.
!!LO:LB:g=original
=57	=57	=57
[2.BB-- [2.B--	16ddd-LL	ff
.	16fff-	.
.	16ddd-	.
.	16fff-	.
.	16ddd-	.
.	16fff-JJ	.
.	16ddd-LL	.
.	16fff-	.
.	16ddd-	.
.	16fff-	.
.	16ddd-	.
.	16fff-JJ	.
4.BB--] 4.B--]	16ddd-LL	.
.	16fff-	.
.	16ddd-	.
.	16fff-	.
.	16ddd-	.
.	16fff-JJ	.
8BB-' 8B-'L	16ddd-LL	.
.	16fff-	.
8D-' 8d-'	16ddd-	.
.	16fff-	.
8F-' 8f-'J	16ddd-	.
.	16fff-JJ	.
*clefG2	*	*
=58	=58	=58
!	!	!LO:HP:b=2
8G' 8g'L	16ddd-LL	<
.	16fff-	.
8B-' 8b-'	16bb-	.
.	16ddd-	.
8d-' 8dd-'J	16aa-	.
.	16bb-JJ	.
8f-' 8ff-'L	16aa-LL	.
.	16bb-	.
8f-' 8ff-'	16ddd-	.
.	16bb-	.
8f-' 8ff-'J	16aa-	.
.	16bb-JJ	[[
4.f- (4.ff-	16r	sf
.	16aa-LL	.
.	16ddd-	.
.	16bb-	.
.	16aa-	.
.	16ddd-JJ	.
4.e-\ 4.ee-\)	16r	.
.	16ggLL	.
.	16ddd-	.
.	16bb-	.
.	16gg	.
.	16ddd-JJ	.
!!LO:LB:g=original
=59	=59	=59
(4.a-	16r	sf
.	16ff-LL	.
.	16ddd-	.
.	16bb-	.
.	16ff-	.
.	16ddd-JJ	.
4.g)	16r	.
.	16ee-LL	.
.	16ddd-	.
.	16bb-	.
.	16ee-	.
.	16ddd-JJ	.
(4.ff-	16r	sf
.	16aa-LL	.
.	16ddd-	.
.	16bb-	.
.	16aa-	.
.	16ddd-JJ	.
4.ee-)	16r	.
.	16ggLL	.
.	16ddd-	.
.	16bb-	.
.	16gg	.
.	16ddd-JJ	.
=60	=60	=60
*	*8va	*
*^	*	*
16ddnLL	[4.ddn	8r	ff
[16ffnJJ	.	.	.
4ff_ [4aa-	.	16r	.
.	.	16ccc-LL	.
.	.	16dddn	.
.	.	16fffJJ	.
4.ff] 4.aa-]	4.dd]	16aaa-LL	.
.	.	16fff	.
.	.	16ddd	.
.	.	16cccc-	.
.	.	16bbb-	.
.	.	16aaa-JJ	.
16ee-LL	2.ee-	16gggLL	.
[16ggJJ	.	16bbb-	.
4gg_	.	16aaa-	.
.	.	16ggg	.
.	.	16fff-	.
.	.	16eee-JJ	.
4.gg]	.	16ddd-LL	.
.	.	16fff-	.
.	.	16eee-	.
.	.	16ddd-	.
.	.	16ccc-X	.
.	.	16bb-JJ	.
*v	*v	*	*
!!LO:LB:g=original
=61	=61	=61
4.a- (4.cc-	16r	.
.	16aa-LL	p
.	16ccc-	.
.	16eee-	.
.	16aaa-	.
.	16aa-JJ	.
4.dd- 4.ff-	8.r	.
.	16aaa-LL	.
.	16aa-	.
.	16aaa-JJ	.
4.cc- 4.ee-)	8.r	.
.	16aaa-LL	.
.	16aa-	.
.	16aaa-JJ	.
4.b- 4.dd- (4.ee-	8.r	sfp
.	16gggLL	.
.	16gg	.
.	16gggJJ	.
=62	=62	=62
4.a- 4.cc-)	16r	.
.	16aa-LL	.
.	16ccc-	.
.	16eee-	.
.	16aaa-	.
.	16aa-JJ	.
*	*X8va	*
(4.d- 4.f-	8.r	.
.	16aa-LL	.
.	16a-	.
.	16aa-JJ	.
4.c- 4.e-	8.r	.
.	16aa-LL	.
.	16a-	.
.	16aa-JJ	.
4.B- 4.d- 4.e-	8.r	sfp
.	16ggLL	.
.	16g	.
.	16ggJJ	.
=63	=63	=63
*	*8va	*
4.A-) 4.c-	16r	.
.	16aa-LL	.
.	16ccc-	.
.	16eee-	.
.	16aaa-	.
.	16aa-JJ	.
*clefF4	*	*
4.D- (4.F-	8.r	.
.	16aaa-LL	.
.	16aa-	.
.	16aaa-JJ	.
4.C- 4.E-	8.r	.
.	16aaa-LL	.
.	16aa-	.
.	16aaa-JJ	.
4.BB-\ 4.D-\ 4.E-\)	8.r	sfp
.	16gggLL	.
.	16gg	.
.	16gggJJ	.
!!LO:LB:g=original
=64	=64	=64
!	!	!LO:HP:t=dimin.
(2.AA-	16aaa-LL	>
.	16eee-	.
.	16ccc-	.
.	16eee-	.
.	16aaa-	.
.	16eee-JJ	.
.	16ccc-LL	.
.	16eee-	.
.	16aaa-	.
.	16eee-	.
.	16ccc-	.
.	16eee-JJ	.
4.EE-	16aaa-LL	.
.	16eee-	.
.	16ccc-	.
.	16eee-	.
.	16aaa-	.
.	16eee-JJ	.
4.CC-	16aaa-LL	.
.	16eee-	.
.	16aaa-	.
.	16eee-	.
.	16aaa-	.
.	16eee-JJ	.
=65	=65	=65
[2.AAA-)	[2.aaa-	pp
4.AAA-]	4.aaa-]	.
*	*X8va	*
*	*clefF4	*
([4BBn	([4Bn	.
16BBLL]	16BLL]	.
16GG#JJ)	16G#JJ)	.
=66	=66	=66
[2.DD#	[2.D#	.
4.DD#]	4.D#]	.
([4BBn	(>[4Bn	p
16BBLL]	16BLL]	.
16GG#JJ	16G#JJ	.
!!LO:LB:g=original
=67	=67	=67
[2.EEn	[2.En	.
4.EE]	4.E]	.
[4GG#	[4G#	.
16GG#LL]	16G#LL]	.
16BBnJJ	16BnJJ	.
*	*clefG2	*
=68	=68	=68
4.En	4.en	.
[4G#	[4g#	.
16G#LL]	16g#LL]	.
16BnJJ	16bnJJ	.
4.en	4.een	.
4.E)	4.e)	.
=69	=69	=69
2.D# 2.F# 2.Bn	([4.bn	.
.	4b]	.
.	8cc#	.
.	b8q	.
2.En 2.Gn 2.A#	[4.cc#T	.
.	8.cc#L]	.
.	16bL	.
.	16dd#	.
.	16cc#JJ)	.
=70	=70	=70
4D# 4F# 4Bn	4bn	.
8r	8r	.
4r	4r	.
8r	8r	.
2.r	2.r	.
*clefG2	*	*
=71||	=71||	=71||
*k[]	*k[]	*
*	*^	*
2.a 2.cc#	2.ryy	([4.ff#	<
.	.	4ff#]	.
.	.	8gg#	.
2.b 2.dd	[4.gg#t	2.ee#	[ >
.	8.gg#L]	.	.
.	16ff#L	.	.
.	16aa	.	.
.	16gg#JJ)	.	]]
*	*v	*v	*
!!LO:LB:g=original
=72	=72	=72
4a 4cc#	4ff#	.
8r	8r	.
4r	4r	.
8r	8r	.
2.r	2.r	.
*clefF4	*	*
=73	=73	=73
2.G# 2.B	(>[4.e	<
.	4e]	.
.	8f#	.
*	*^	*
2.A 2.cn	[4.f#T	2.d#	[ >
.	8.f#L]	.	.
.	16eL	.	.
.	16g#	.	.
.	16f#JJ)	.	]
*	*v	*v	*
=74	=74	=74
(<4.G# 4.B	(>4.e	.
2.FF#	2.A 2.c# 2.a)	sf >
*	*^	*
4.AA)	[4f#	4.A 4.c#	.
.	16f#LL]	.	]
.	16g#JJ	.	.
*	*v	*v	*
=75	=75	=75
2.BB	2.G# 2.B 2.e	p
2.BBB	2.F# 2.A 2.d#	.
*clefG2	*	*
=76	=76	=76
*	*^	*
2.g# 2.b	2.ryy	([4.ee	pp
.	.	4ee]	.
.	.	8ff#	.
2.a/ 2.ccn/	[4.ff#T	2.dd#	.
.	8.ff#L]	.	.
.	16eeL	.	.
.	16gg#	.	.
.	16ff#JJ)	.	.
=77	=77	=77	=77
4.g# 4.b	4.ryy	(4.ee	.
*clefF4	*	*	*
!	!	!	!LO:DY:rj
(<2.F# 2.f#	2.ryy	2.a 2.cc# 2.aa)	sf
4.A)	[4ff#	4.a 4.cc#	.
.	16ff#LL]	.	.
.	16gg#JJ	.	.
*	*v	*v	*
!!LO:LB:g=original
=78	=78	=78
2.B	2.g#/ 2.b/ 2.ee/	p
4BB	4f# 4a 4dd#	.
8r	8r	.
!	!	!LO:DY:rj:b=2
[4BB	4r	f
16BBLL]	8r	.
16GGnJJ	.	.
=79	=79	=79
[2.EE	16bLL	f
.	16gn	.
.	16b	.
.	16g	.
.	16b	.
.	16gJJ	.
.	16bLL	.
.	16g	.
.	16b	.
.	16g	.
.	16b	.
.	16gJJ	.
4.EE]	16bLL	.
.	16g	.
.	16b	.
.	16g	.
.	16b	.
.	16gJJ	.
[4GG	16bLL	.
.	16g	.
.	16b	.
.	16g	.
16GGLL]	16b	.
16BBJJ	16gJJ	.
=80	=80	=80
4.E	16bLL	.
.	16g	.
.	16b	.
.	16g	.
.	16b	.
.	16gJJ	.
[4G	16bLL	.
.	16g	.
.	16b	.
.	16g	.
16GLL]	16b	.
16BJJ	16gJJ	.
4.e	16bLL	.
.	16g	.
.	16b	.
.	16g	.
.	16b	.
.	16gJJ	.
4.e	16bLL	.
.	16g	.
.	16b	.
.	16g	.
.	16b	.
.	16gJJ	.
*clefG2	*	*
!!LO:LB:g=original
=81	=81	=81
40%3fLL	2.r	.
40%3g	.	.
40%3b	.	.
40%3g	.	.
40%3fJJ	.	.
40%3dLL	.	.
40%3f	.	.
40%3g	.	.
40%3f	.	.
40%3dJJ	.	.
*clefF4	*	*
40%3BLL	4r	.
40%3d	.	.
40%3f	.	.
40%3d	.	.
.	8r	.
40%3BJJ	.	.
40%3GLL	[4b	.
40%3B	.	.
40%3d	.	.
40%3B	.	.
.	16bLL]	.
40%3GJJ	.	.
.	16ddJJ	.
=82	=82	=82
*Xtuplet	*	*
40%3FLL	4.gg	.
40%3G	.	.
40%3B	.	.
40%3G	.	.
40%3FJJ	.	.
40%3DLL	[4bb	.
40%3F	.	.
40%3G	.	.
40%3F	.	.
.	16bbLL]	.
40%3DJJ	.	.
.	16dddJJ	.
*tuplet	*	*
(16BBLL	4.gg 4.ggg	.
16D	.	.
16F	.	.
16D	.	.
16BB	.	.
16GGJJ)	.	.
*Xtuplet	*	*
(16FFLL	4.gg 4.ggg	.
16GG	.	.
16BB	.	.
16GG	.	.
16FF	.	.
16DDJJ)	.	.
!!LO:LB:g=original
=83	=83	=83
[2.CC	40%3gg 40%3gggLL	sf
.	40%3eee-	.
.	40%3ggg	.
.	40%3eee-	.
.	40%3cccJJ	.
.	40%3ggLL	.
.	40%3ccc	.
.	40%3eee-	.
.	40%3ccc	.
.	40%3ggJJ	.
4.CC]	40%3ee-LL	.
.	40%3gg	.
.	40%3ccc	.
.	40%3gg	.
.	40%3ee-JJ	.
[4EE-	40%3ccLL	.
.	40%3ee-	.
.	40%3gg	.
.	40%3ee-	.
16EE-LL]	.	.
.	40%3ccJJ	.
16GGJJ	.	.
=84	=84	=84
*	*Xtuplet	*
4.C	40%3gLL	.
.	40%3cc	.
.	40%3ee-	.
.	40%3cc	.
.	40%3gJJ	.
[4E-	40%3e-LL	.
.	40%3g	.
.	40%3cc	.
.	40%3g	.
16E-LL]	.	.
.	40%3e-JJ	.
16GJJ	.	.
4.c	40%3e-LL	.
.	40%3g	.
.	40%3cc	.
.	40%3g	.
.	40%3e-JJ	.
4.c	40%3e-LL	.
.	40%3g	.
.	40%3cc	.
.	40%3g	.
.	40%3e-JJ	.
!!LO:LB:g=original
=85	=85	=85
*tuplet	*	*
40%3d-LL	2.r	.
40%3e-	.	.
40%3g	.	.
40%3e-	.	.
40%3d-JJ	.	.
40%3B-LL	.	.
40%3d-	.	.
40%3e-	.	.
40%3d-	.	.
40%3B-JJ	.	.
*Xtuplet	*	*
40%3GLL	4r	.
40%3B-	.	.
40%3d-	.	.
40%3B-	.	.
.	8r	.
40%3GJJ	.	.
40%3E-LL	[4g	.
40%3G	.	.
40%3B-	.	.
40%3G	.	.
.	16gLL]	.
40%3E-JJ	.	.
.	16b-JJ	.
=86	=86	=86
40%3D-LL	4.ee-	.
40%3E-	.	.
40%3G	.	.
40%3E-	.	.
40%3D-JJ	.	.
40%3BB-LL	[4gg	.
40%3D-	.	.
40%3E-	.	.
40%3D-	.	.
.	16ggLL]	.
40%3BB-JJ	.	.
.	16bb-JJ	.
*tuplet	*	*
16GGLL	4.ee- 4.eee-	.
16BB-	.	.
16D-	.	.
16BB-	.	.
16GG	.	.
16EE-JJ	.	.
*Xtuplet	*	*
16DD-LL	4.ee- 4.eee-	.
16EE-	.	.
16GG	.	.
16EE-	.	.
16DD-	.	.
16BBB-JJ	.	.
!!LO:LB:g=original
=87	=87	=87
*	*8va	*
*	*tuplet	*
[2.AAA-	40%3eee-LL	sf
.	40%3aaa-	.
.	40%3cccc	.
.	40%3aaa-	.
.	40%3eee-JJ	.
*	*Xtuplet	*
.	40%3cccLL	.
.	40%3eee-	.
.	40%3aaa-	.
.	40%3eee-	.
.	40%3cccJJ	.
4.AAA-]	40%3aa-LL	.
.	40%3ccc	.
.	40%3eee-	.
.	40%3ccc	.
.	40%3aa-JJ	.
*	*X8va	*
[4CC	40%3ee-LL	.
.	40%3aa-	.
.	40%3ccc	.
.	40%3aa-	.
16CCLL]	.	.
.	40%3ee-JJ	.
16EE-JJ	.	.
=88	=88	=88
4.AA-	40%3ccLL	.
.	40%3ee-	.
.	40%3aa-	.
.	40%3ee-	.
.	40%3ccJJ	.
[4C	40%3a-LL	.
.	40%3cc	.
.	40%3ee-	.
.	40%3cc	.
16CLL]	.	.
.	40%3a-JJ	.
16E-JJ	.	.
4.A-	40%3e-LL	.
.	40%3a-	.
.	40%3cc	.
.	40%3a-	.
.	40%3e-JJ	.
4.A-	40%3cLL	.
.	40%3e-	.
.	40%3a-	.
.	40%3e-	.
.	40%3cJJ	.
!!LO:LB:g=original
=89	=89	=89
40%3AnLL	[2.g-	sf
40%3c	.	.
40%3e-	.	.
40%3c	.	.
40%3AJJ	.	.
40%3G-LL	.	.
40%3A	.	.
40%3c	.	.
40%3A	.	.
40%3G-JJ	.	.
40%3E-LL	4.g-]	.
40%3G-	.	.
40%3A	.	.
40%3G-	.	.
40%3E-JJ	.	.
40%3CLL	[4cc	.
40%3E-	.	.
40%3G-	.	.
40%3E-	.	.
.	16ccLL]	.
40%3CJJ	.	.
.	16ee-JJ	.
=90||	=90||	=90||
*k[b-e-a-d-]	*k[b-e-a-d-]	*
40%3AAnLL	4.gg-	.
40%3C	.	.
40%3E-	.	.
40%3C	.	.
40%3AAJJ	.	.
*	*8va	*
40%3GG-LL	[4ccc	.
40%3AA	.	.
40%3C	.	.
40%3AA	.	.
.	16cccLL]	.
40%3GG-JJ	.	.
.	16eee-JJ	.
*tuplet	*	*
16EE-LL	4.ggg-X	.
16GG-	.	.
16AA	.	.
16GG-	.	.
16EE-	.	.
16CCJJ	.	.
*Xtuplet	*	*
16AAAnLL	4.ggg-	.
16CC	.	.
16EE-	.	.
16GG-	.	.
16EE-	.	.
16CCJJ	.	.
!!LO:LB:g=original
=91	=91	=91
16AAA-XLL	[4.ggg-	sf
16CC	.	.
16EE-	.	.
16GG-	.	.
16EE-	.	.
16CCJJ	.	.
16AAAnLL	8ggg-L]	.
16CC	.	.
16EE-	(16ggg-L	.
16GG-	16eee-	.
16EE-	16ccc	.
16CCJJ	16gg-JJ)	.
16AAA-LL	[4.ggg-	sf
16CC	.	.
16EE-	.	.
16GG-	.	.
16EE-	.	.
16CCJJ	.	.
16AAAnLL	8ggg-L]	.
16CC	.	.
*	*X8va	*
16EE-	(16gg-L	.
16GG-	16ee-	.
16EE-	16cc	.
16CCJJ	16g-JJ)	.
=92	=92	=92
16AAA-XLL	[4.gg-	sf
16CC	.	.
16EE-	.	.
16GG-	.	.
16EE-	.	.
16CCJJ	.	.
16AAAnLL	8gg-]	.
16CC	.	.
16EE-	(16g-LL	.
16GG-	16e-	.
16EE-	16c	.
16CCJJ	16G-JJ)	.
16AAA-LL	8g-L	sf
16CC	.	.
16EE-	(16g-L	.
16GG-	16e-	.
16EE-	16c	.
16CCJJ	16G-JJ)	.
16AAAnLL	8g-L	sf
16CC	.	.
16EE-	(16g-L	.
16GG-	16e-	.
16EE-	16c	.
16CCJJ	16G-JJ)	.
!!LO:LB:g=original
=93	=93	=93
8AAA-X 8AA-X	4g-	fp
8A-L	.	.
8A-J	8r	.
8A-L	4r	.
8A-	.	.
8A-J	8r	.
8A-L	2.r	.
8A-	.	.
8A-J	.	.
8A-L	.	.
8A-	.	.
8A-J	.	.
=94	=94	=94
8r	4.c 4.e-	.
8A-L	.	.
8A-J	.	.
8A-L	4r	.
8A-	.	.
8A-J	8r	.
8G-L	4.cc 4.ee-	.
8A-	.	.
8A-J	.	.
8A-L	4r	.
8A-	.	.
8A-J	8r	.
=95	=95	=95
8r	4.d- 4.f	.
8A-L	.	.
8A-J	.	.
8A-L	4r	.
8A-	.	.
8A-J	8r	.
8FL	4.dd- 4.ff	.
8A-	.	.
8A-J	.	.
8A-L	4r	.
8A-	.	.
8A-J	8r	.
=96	=96	=96
8r	1.d- 1.f (>1.b-	sfp
8A-L	.	.
8A-J	.	.
8D- 8FL	.	.
8A-	.	.
8A-J	.	.
8D- 8FL	.	.
8A-	.	.
8A-J	.	.
8D- 8FL	.	.
8A-	.	.
8A-J	.	.
!!LO:LB:g=original
=97	=97	=97
8C 8E-L	4c 4e- 4a-)	.
8A-	.	.
8A-J	8r	.
8A-L	4r	.
8A-	.	.
8A-J	8r	.
8A-L	4r	.
8A-	.	.
8A-J	8r	.
8A-L	[4c [4e-	.
8A-	.	.
8A-J	16c] 16e-LL]	.
.	16c 16e-JJ	.
=98	=98	=98
8A-L	4d- ((4f	.
8A-	.	.
8A-J	8c 8e-))	.
8A-L	8r	.
8A-	8r	.
8A-J	8cc 8ee-	.
8A-L	8r	.
8A-	8r	.
8A-J	8ccc 8eee-	.
8E- 8G-L	8r	.
8A-	8.r	.
8A-J	.	.
.	16c 16e-	.
=99	=99	=99
8A-L	4e- ((4g-	.
8A-	.	.
8A-J	8d- 8f))	.
8A-L	8r	.
8A-	8r	.
8A-J	8dd- 8ff	.
8A-L	8r	.
8A-	8r	.
8A-J	8ddd- 8fff	.
8D- 8FL	8r	.
8A-	8.r	.
8A-J	.	.
.	16d- 16f	.
!!LO:LB:g=original
=100	=100	=100
8r	1.d- 1.f (>1.b-	sfp
8A-L	.	.
8A-J	.	.
8D- 8FL	.	.
8A-	.	.
8A-J	.	.
8D- 8FL	.	.
8A-	.	.
8A-J	.	.
8D- 8FL	.	.
8A-	.	.
8A-J	.	.
=101	=101	=101
8r	4c 4e- 4a-)	.
8A-L	.	.
8A-J	8r	.
8C 8E-L	4r	.
8A-	.	.
8A-J	8r	.
8r	2.d- 2.f- (>2.b--	.
8A-L	.	.
8A-J	.	.
8D- 8F-L	.	.
8A-	.	.
8A-J	.	.
=102	=102	=102
8r	4c 4e- 4a-)	.
8A-L	.	.
8A-J	8r	.
8C 8E-L	4r	.
8A-	.	.
8A-J	8r	.
8r	2.dd- 2.ff- (2.bb--	.
8A-L	.	.
8A-J	.	.
8D- 8F-L	.	.
8A-	.	.
8A-J	.	.
=103	=103	=103
8r	4.cc 4.ee- 4.aa-)	.
8A-L	.	.
8A-J	.	.
8C 8E-L	4r	.
8A-	.	.
8A-J	8r	.
8r	4.c- 4.dn 4.a-	.
8A-L	.	.
8A-J	.	.
8C- 8DnL	4r	.
8A-	.	.
8A-J	8r	.
!!LO:LB:g=original
=104	=104	=104
8r	4.B-X 4.d-X 4.gn	pp
8A-L	.	.
8A-J	.	.
8BB- 8D-XL	4r	.
8A-	.	.
8A-J	8r	.
8r	4.An 4.c 4.g-	.
8A-L	.	.
8A-J	.	.
8AAn 8CL	4r	.
8A-X	.	.
8A-J	8r	.
=105	=105	=105
*^	*	*
8r	8r	4A- 4c 4g-	.
!	!	!LO:TX:c:i:t=legato e cresc.	!
(<8AA-XL	4AA-X	.	.
8GGnJ	.	8r	.
8AA-L	4AA-	4r	.
8BB-	.	.	.
8AA-J	[>8AA-	8r	.
2.AA-]	8GG-L	(8ee-L	.
.	8AA-	8ff	.
.	8GG-J	8ee-J	.
.	8FFL	8dd-L	.
.	8GG-	8ee-	.
.	8FFJ	8dd-J	.
=106	=106	=106	=106
(8EE-	8EE-L	8ccL	.
4AA-)	8AA-	8gg-J)	.
.	8GGnJ	8r	.
4AA-	8AA-L	4r	.
.	8BB-	.	.
[<8AA-	8AA-J	8r	.
2.AA-]	8EE-L	(8gg-L	.
.	8FF	8aa-	.
.	8EE-J	8gg-J	.
.	8DD-L	8ffL	.
.	8EE-	8gg-	.
.	8DD-J	8ffJ	.
!!LO:LB:g=original
=107	=107	=107	=107
(8CC	8CCL	8ee-L	.
4AA-)	8AA-	8eee-J)	.
.	8GGJ	8r	.
4AA-	8AA-L	4r	.
.	8BB-	.	.
8AA-	[8AA-J	8r	.
2.AA-]	8CCL	(8eee-L	.
.	8DD-	8fff	.
.	8CCJ	8eee-J	.
.	8BBB-L	8ddd-L	.
.	8CC	8eee-	.
.	8BBB-J	8ddd-J	.
*v	*v	*	*
=108	=108	=108
8AAA-L	8cccL	f
8GGG	8ddd-	.
8AAA-J	8cccJ	.
8BBB-L	8bb-L	.
8AAA-	8ccc	.
8BBB-J	8bb-J	.
8CC-L	8aa-L	.
8BBB-	8bb-	.
8CC-J	8aa-J	.
8CCnL	8gg-L	.
8BBBn	8aa-	.
8CCJ)	8gg-J	.
=109	=109	=109
(8DD-L	4ff)	p
8FF 8AA- 8D-	.	.
8DD-J	8r	.
8FF 8AA- 8D-L	4r	.
8DD-	.	.
8FF 8AA- 8D-J	8r	.
8DD-L	4r	.
8FF 8AA- 8D-	.	.
8DD-J	8r	.
8FF 8AA- 8D-L	[4F (>[4f	.
8DD-	.	.
8FF 8AA- 8D-J)	16F] 16fLL]	.
.	16A- 16a-JJ	.
!!LO:LB:g=original
=110	=110	=110
(8DD-L	4.d- 4.dd-	.
8FF 8AA- 8D-	.	.
8DD-J	.	.
8FF 8AA- 8D-L	[4f/ [4ff/	.
8DD-	.	.
8FF 8AA- 8D-J	16f] 16ffLL]	.
.	16d- 16dd-JJ	.
8EE-L	4.c 4.cc	.
8GG- 8AA- 8E-	.	.
8EE-J	.	.
8GG- 8AA- 8E-L	[4e- [4ee-	.
8EE-	.	.
8GG-) 8AA- 8E-J	16e-] 16ee-LL]	.
.	16c 16ccJJ)	.
=111	=111	=111
(8FFL<	4.d- ((4.dd-	.
8AA- 8D- 8F	.	.
8FFJ	.	.
8AA- 8D- 8FL<	[4.A- [4.a-))	.
8FF	.	.
8AA- 8D- 8FJ	.	.
8FFL<	4.A-] 4.a-]	.
8AA- 8D- 8F	.	.
8FFJ	.	.
8D- 8E- 8G-L<	(4B- [4b-	.
8GG-	.	.
8D- 8E- 8G-J)	16b-LL]	.
.	16g-JJ)	.
=112	=112	=112
(8AA-L<	(>4.f	.
8D- 8F 8A-	.	.
8AA-J	.	.
8D- 8F 8A-L	[4a-	.
8AA-	.	.
8D- 8F 8A-J	16a-LL]	.
.	16fJJ	.
8AA-L<	4.e-	.
8C 8E- 8A-	.	.
8AA-J	.	.
8C 8E- 8A-L	[4g-	.
8AA-	.	.
8C 8E- 8A-J)	16g-LL]	.
.	16e-JJ)	.
!!LO:LB:g=original
=113	=113	=113
8AAnL<	(4.c	f
8C 8F 8An	.	.
8AAJ	.	.
8C 8F 8AL	[4.f)	.
8AA	.	.
8C 8F 8AJ	.	.
8AAL<	4.f]	.
8C 8F 8A	.	.
8AAJ	.	.
8D- 8F 8B-L	[4d- (>[4dd-	p
8BB-	.	.
8D- 8F 8B-J	16d-] 16dd-LL]	.
.	16f 16ffJJ	.
=114	=114	=114
8BB-L<	4.b- 4.bb-	.
8D- 8F 8B-	.	.
8BB-J	.	.
8D- 8F 8B-L	[4dd- [4ddd-	.
8BB-	.	.
8D- 8F 8B-J	16dd-] 16ddd-LL]	.
.	16b- 16bb-JJ	.
8CL	4.an 4.aan	.
8E- 8F 8c	.	.
8CJ	.	.
8E- 8F 8cL	[4cc [4ccc	.
8C	.	.
8E- 8F 8cJ	16cc] 16cccLL]	.
.	16a 16aaJJ)	.
=115	=115	=115
8D-L	4.b- (4.bb-	.
8F 8B- 8d-	.	.
8D-J	.	.
8F 8B- 8d-L	[4.f [4.ff)	.
8D-	.	.
8F 8B- 8d-J	.	.
8D-L	4.f] 4.ff]	.
8F 8B- 8d-	.	.
8D-J	.	.
*	*^	*
8G- 8B- 8e-L	(>[4gg-	4.g-	.
8E-	.	.	.
8G- 8B- 8e-J	16gg-LL]	.	.
.	16ee-JJ	.	.
*	*v	*v	*
!!LO:LB:g=original
=116	=116	=116
8FL	4.dd-	<
8B- 8d- 8f	.	.
8FJ	.	.
8B- 8d- 8fL	[4ff	.
8F	.	.
8B- 8d- 8fJ	16ffLL]	.
.	16dd-JJ	.
8FL	4.cc	.
8An 8c 8e-	.	.
8FJ	.	.
8A 8c 8e-L	[4ee-	.
8F	.	.
8A 8c 8e-J	16ee-LL]	.
.	16ccJJ)	.
*clefG2	*	*
=117	=117	=117
8G-L	(4.b-	f
8B- 8d- 8g-	.	.
8G-J	.	.
8B- 8d- 8g-L	2.dd-)	.
8G-	.	.
8B- 8d- 8g-J	.	.
8G-L	.	.
8B- 8d- 8g-	.	.
8G-J	.	.
8B- 8d- 8g-L	[4b- ([4bb-	.
8G-	.	.
8B- 8d- 8g-J	16b-] 16bb-LL]	.
.	16dd- 16ddd-JJ	.
=118	=118	=118
!	!	!LO:DY:t=sempre più %s
8G-L	4.gg- 4.ggg-	f
8B- 8d- 8g-	.	.
8G-J	.	.
8B- 8d- 8g-L	[4bb- [4bbb-	.
8G-	.	.
8B- 8d- 8g-J	16bb-] 16bbb-LL]	.
.	16gg- 16ggg-JJ	.
8A-L	4.ff 4.fff	.
8c- 8d- 8a-	.	.
8A-J	.	.
8c- 8d- 8a-L	4aa- [4aaa-	.
8A-	.	.
8c- 8d- 8a-J	16aa- 16aaa-LL]	.
.	16ff 16fffJJ)	.
!!LO:LB:g=original
=119	=119	=119
8A#L	4.ff# (4.fff#	.
8c# 8f# 8a#	.	.
8A#J	.	.
8c# 8f# 8a#L	[2.cc# [2.ccc#)	.
8A#	.	.
8c# 8f# 8a#J	.	.
8A#L	.	.
8c# 8f# 8a#	.	.
8A#J	.	.
8c# 8f# 8a#L	4.cc#] 4.ccc#]	.
8A#	.	.
8c# 8f# 8a#J	.	.
=120	=120	=120
8BnL	4.ff# (4.fff#	.
8dn 8f# 8bn	.	.
8BJ	.	.
8d 8f# 8bL	[2.ddn [2.dddn)	.
8B	.	.
8d 8f# 8bJ	.	.
8BL	.	.
8d 8f# 8b	.	.
8BJ	.	.
8d 8f# 8bL	4.dd] 4.ddd]	.
8B	.	.
8d 8f# 8bJ	.	.
=121	=121	=121
8BnL	4.gg (4.ggg	.
8dn 8g 8bn	.	.
8BJ	.	.
8d 8g 8bL	[2.ddn [2.dddn)	.
8B	.	.
8d 8g 8bJ	.	.
8BL	.	.
8d 8g 8b	.	.
8BJ	.	.
8d 8g 8bL	4.dd] 4.ddd]	.
8B	.	.
8d 8g 8bJ	.	.
=122	=122	=122
8cL	4.gg (4.ggg	.
8en 8g 8cc	.	.
8cJ	.	.
8e 8g 8ccL	[2.een [2.eeen)	.
8c	.	.
8e 8g 8ccJ	.	.
8cL	.	.
8e 8g 8cc	.	.
8cJ	.	.
8e 8g 8ccL	4.ee] 4.eee]	.
8c	.	.
8e 8g 8ccJ	.	.
!!LO:LB:g=original
=123	=123	=123
!	!	!LO:DY:a=2
16d-LL	4r	ff
16e-	.	.
16g	.	.
16b-J	.	.
[8dd-J	8r	.
*	*8va	*
*^	*	*
4.b- 4.dd-]	4.d- 4.e- 4.g	(16ggLL	ff
.	.	16bb-	.
.	.	16ddd-	.
.	.	16eeen	.
*	*	*^	*
.	.	16ggg	16gg)	.
.	.	16ggJJ	16r	.
*v	*v	*	*	*
*	*v	*v	*
16enLL	4r	.
16g	.	.
16b-	.	.
16dd-J	.	.
8eenJ	8r	.
4.e 4.g 4.b- 4.dd-	16ggLL	.
.	16bb-	.
.	16ddd-	.
.	16eee	.
*	*^	*
.	16ggg	16gg	.
.	16ggJJ	16r	.
*	*v	*v	*
=124	=124	=124
16gLL	4r	.
16b-	.	.
16dd-	.	.
[16eenJ	.	.
(8eeJ]	8r	.
8b-	16ggLL	.
.	16bb-	.
4ee)	16ddd-	.
.	16eeen	.
*	*^	*
.	16ggg	16gg	.
.	16ggJJ	16r	.
*	*v	*v	*
(16b-LL	4r	.
16dd-JJ	.	.
4een	.	.
.	8r	.
4.b-) 4.dd-	(16ggLL	.
.	16bb-	.
.	16ddd-	.
.	16eeen	.
*	*^	*
.	16ggg	16gg)	.
.	16ggJJ	16r	.
*	*v	*v	*
!!LO:LB:g=original
=125	=125	=125
16dd-LL	8r	.
[16eenJJ	.	.
*^	*	*
4gg	4ee]	16bb-LL>	.
.	.	16ddd-	.
.	.	16eeen	.
.	.	16gggJJ	.
*v	*v	*	*
16eeLL	8r	.
(16ggJJ	.	.
4bb-)	16ddd-LL>	.
.	16eeen	.
.	16ggg	.
.	16bbb-JJ	.
(16ggLL	8.r	.
16bb-	.	.
16ddd-JJ)	.	.
16r	(16eeeLL	.
8r	16ggg	.
.	16bbb-JJ)	.
(16bb-LL	8.r	.
16ddd-	.	.
16eeenJJ)	.	.
16r	(16eeeLL	.
8r	16ggg	.
.	16bbb-JJ)	.
=126	=126	=126
(16ddd-LL	8r	.
16eeenJJ)	.	.
8r	(16eeenLL	.
.	16gggJ	.
8r	8bbb-J)	.
(16bb-LL	8r	.
16ddd-JJ)	.	.
8r	(16ddd-LL	.
.	16eeeJ	.
8r	8gggJ)	.
(16ggLL	8r	.
16bb-JJ)	.	.
8r	(16bb-LL	.
.	16ddd-J	.
8r	8eeeJ)	.
*	*X8va	*
(16eenLL	8r	.
16ggJJ)	.	.
8r	(16ggLL	.
.	16bb-J	.
8r	8ddd-J)	.
!!LO:LB:g=original
=127	=127	=127
(16dd-LL	8r	.
16eenJJ)	.	.
8r	(16eenLL	.
.	16ggJ	.
8r	8bb-J)	.
(16b-LL	8r	.
16dd-JJ)	.	.
8r	(16dd-LL	.
.	16eeJ	.
8r	8ggJ)	.
(16gLL	8r	.
16b-JJ)	.	.
8r	(16b-LL	.
.	16dd-J	.
8r	8eeJ)	.
(16enLL	8r	.
16gJJ)	.	.
8r	(16gLL	.
.	16b-J	.
8r	8dd-J)	.
=128	=128	=128
*ped	*	*
(16d-LL	8r	.
16enJJ)	.	.
8r	(16enLL	.
.	16gJ	.
8r	8b-J)	.
(16B-LL	8r	.
16d-JJ)	.	.
8r	(16d-LL	.
.	16eJ	.
8r	8gJ)	.
*clefF4	*	*
(16GLL	8r	.
16B-JJ)	.	.
8r	(16B-LL	.
.	16d-J	.
8r	8eJ)	.
(16EnLL	8r	.
16GJJ)	.	.
*	*clefF4	*
8r	(16GLL	.
.	16B-J	.
8r	8d-J)	.
!!LO:LB:g=original
=129	=129	=129
(16D-LL	8r	.
16EnJJ)	.	.
8r	(16EnLL	.
.	16GJ	.
8r	8B-J)	.
16BB-LL	8r	.
16D-JJ	.	.
8r	(16D-LL	.
.	16EJ	.
8r	8GJ)	.
(16GGLL	8r	.
16BB-JJ)	.	.
8r	(16BB-LL	.
.	16D-J	.
8r	8EJ)	.
(16EEnLL	8r	.
16GGJJ)	.	.
8r	(16GGLL	.
.	16BB-J	.
8r	8D-J)	.
=130	=130	=130
4DD-	16GG 16BB-LL	ff
.	16En	.
.	16GG 16BB-	.
.	16E	.
8r	16GG 16BB-	.
.	16EJJ	.
*clefG2	*	*
8dd-L	16GG 16BB-LL	.
.	16E	.
8dd-	16GG 16BB-	.
.	16E	.
8dd-J	16GG 16BB-	.
.	16EJJ	.
4dd-	16GG 16BB-LL	.
.	16E	.
.	16GG 16BB-	.
.	16E	.
8r	16GG 16BB-	.
.	16EJJ	.
*clefF4	*	*
8DD-L	16GG 16BB-LL	.
.	16E	.
8DD-	16GG 16BB-	.
.	16E	.
8DD-J	16GG 16BB-	.
.	16EJJ	.
!!LO:LB:g=original
=131	=131	=131
4DD-	16GG 16BB-LL	.
.	16En	.
.	16GG 16BB-	.
.	16E	.
8r	16GG 16BB-	.
.	16EJJ	.
*clefG2	*	*
8dd-L	16GG 16BB-LL	.
.	16E	.
8dd-	16GG 16BB-	.
.	16E	.
8dd-J	16GG 16BB-	.
.	16EJJ	.
4dd-	16GG 16BB-LL	.
.	16E	.
.	16GG 16BB-	.
.	16E	.
8r	16GG 16BB-	.
.	16EJJ	.
*clefF4	*	*
8DD-L	16GG 16BB-LL	.
.	16E	.
8DD-	16GG 16BB-	.
.	16E	.
8DD-J	16GG 16BB-	.
.	16EJJ	.
=132	=132	=132
*Xped	*	*
4CC	16GG 16BB-LL	.
.	16En	.
.	16GG 16BB-	.
.	16E	.
8r	16GG 16BB-	.
.	16EJJ	.
*clefG2	*	*
8dd-L	16GG 16BB-LL	.
.	16E	.
8dd-	16GG 16BB-	.
.	16E	.
8dd-J	16GG 16BB-	.
.	16EJJ	.
4cc	16GG 16BB-LL	.
.	16E	.
.	16GG 16BB-	.
.	16E	.
8r	16GG 16BB-	.
.	16EJJ	.
*clefF4	*	*
8DD-L	16GG 16BB-LL	.
.	16E	.
8DD-	16GG 16BB-	.
.	16E	.
8DD-J	16GG 16BB-	.
.	16EJJ	.
!!LO:LB:g=original
=133	=133	=133
4CC	16GG 16BB-LL	.
.	16En	.
.	16GG 16BB-	.
.	16E	.
8r	16GG 16BB-	.
.	16EJJ	.
*clefG2	*	*
8dd-L	16GG 16BB-LL	.
.	16E	.
8dd-	16GG 16BB-	.
.	16E	.
8dd-J	16GG 16BB-	.
.	16EJJ	.
4cc	16GG 16BB-LL	.
.	16E	.
.	16GG 16BB-	.
.	16E	.
8r	16GG 16BB-	.
.	16EJJ	.
*clefF4	*	*
8DD-L	16GG 16BB-LL	.
.	16E	.
8DD-	16GG 16BB-	.
.	16E	.
8DD-J	16GG 16BB-	.
.	16EJJ	.
=134	=134	=134
8CCL	4GG 4BB- 4En	p
8CC	.	>
8CCJ	8r	.
8CCL	4r	.
8CC	.	.
8CCJ	8r	.
8CCL	2.r	.
8CC	.	.
8CCJ	.	.
8CCL	.	.
8CC	.	.
8CCJ	.	.
=135	=135	=135
8CCL	2.r	.
8CC	.	.
8CCJ	.	.
8CCL	.	.
8CC	.	.
8CCJ	.	.
8CCL	4r	.
8CC	.	.
8CCJ	8r	.
!	!	!LO:DY:rj
8CCL	[4C (>[4c	pp
8CC	.	.
8CCJ	16C] 16cLL]	.
.	16AA- 16A-JJ	.
!!LO:LB:g=original
=136	=136	=136
8CCL	[2.FF [2.F	.
8CC	.	.
8CCJ	.	.
8CCL	.	.
8CC	.	.
8CCJ	.	.
8CCL	4.FF] 4.F]	.
8CC	.	.
8CCJ	.	.
8CCL	[4AA- [4A-	.
8CC	.	.
8CCJ	16AA-] 16A-LL]	.
.	16C 16cJJ	.
=137	=137	=137
8CCL	4.F 4.f	.
8CC	.	.
8CCJ	.	.
*	*clefG2	*
8CCL	[4A- [4a-	.
8CC	.	.
8CCJ	16A-] 16a-LL]	.
.	16c 16ccJJ	.
8CCL	4.f 4.ff	.
8CC	.	.
8CCJ	.	.
8CCL	4.F 4.f)	.
8CC	.	.
8CCJ	.	.
=138	=138	=138
*	*^	*
8CCL	([4.cc	2.en 2.g	.
8CC	.	.	.
8CCJ	.	.	.
8CCL	4cc]	.	.
8CC	.	.	.
8CCJ	8ddn	.	.
8CCL	[4.ddTT	2.f 2.bn	.
8CC	.	.	.
8CCJ	.	.	.
8CCL	8.ddL]	.	.
8CC	.	.	.
.	16ccL	.	.
8CCJ	16een	.	.
.	16ddJJ)	.	.
*	*v	*v	*
!!LO:LB:g=original
=139	=139	=139
8CCL	4en 4g 4cc	.
8CC	.	.
8CCJ	8r	.
8CCL	4r	.
8CC	.	.
8CCJ	8r	.
(8CCL	4r	.
8DD-)	.	.
8DD-J	8r	.
*	*clefF4	*
8DD-L	[4D- (>[4d-	pp
8DD-	.	.
8DD-J	16D-] 16d-LL]	.
.	16BB- 16B-JJ	.
=140	=140	=140
8DD-L	[2.GG-\ [2.G-\	.
8DD-	.	.
8DD-J	.	.
8DD-L	.	.
8DD-	.	.
8DD-J	.	.
8DD-L	4.GG-\] 4.G-\]	.
8DD-	.	.
8DD-J	.	.
8DD-L	[4BB- [4B-	.
8DD-	.	.
8DD-J	16BB-] 16B-LL]	.
.	16D- 16d-JJ	.
*	*clefG2	*
=141	=141	=141
8DD-L	4.G- 4.g-	.
8DD-	.	.
8DD-J	.	.
8DD-L	[4B- [4b-	.
8DD-	.	.
8DD-J	16B-] 16b-LL]	.
.	16d- 16dd-JJ	.
8DD-L	4.g- 4.gg-	.
8DD-	.	.
8DD-J	.	.
8DD-L	4.G- 4.g-)	.
8DD-	.	.
8DD-J	.	.
!!LO:LB:g=original
=142	=142	=142
*	*^	*
8DD-L	([4.dd-	2.f 2.a-	.
8DD-	.	.	.
8DD-J	.	.	.
8DD-L	4dd-]	.	.
8DD-	.	.	.
8DD-J	8ee-	.	.
8DD-L	[4.ee-TT	2.g- 2.cc	.
8DD-	.	.	.
8DD-J	.	.	.
8DD-L	8.ee-L]	.	.
8DD-	.	.	.
.	16dd-L	.	.
8DD-J	16ff	.	.
.	16ee-JJ)	.	.
*	*v	*v	*
=143	=143	=143
*	*^	*
8DD-L	4dd-	4f 4a-	.
8BBB- 8FF	.	.	.
*	*v	*v	*
8BBBn 8FFJ	8rb	.
8BBB 8FFL	4rb	.
8BBB 8FF	.	.
8BBB 8FFJ	8rb	.
8BBB 8FFL	2.rb	.
8BBB 8FF	.	.
8BBB 8FFJ	.	.
8BBB 8FFL	.	.
8BBB 8FF	.	.
8BBB 8FFJ	.	.
=144	=144	=144
*^	*	*
2.EE	8EEnL	([4.cc	.
.	8CC	.	.
.	8CCJ	.	.
.	8CCL	4cc]	.
.	8CC	.	.
.	8CCJ	8ddn	.
.	.	(8ccq	.
2.FF	8FFL	[4.ddTT)	.
.	8CC	.	.
.	8CCJ	.	.
.	8CCL	8.ddL]	.
.	8CC	.	.
.	.	16ccL	.
.	8CCJ	16een	.
.	.	16ddJJ)	.
*v	*v	*	*
!!LO:LB:g=original
=145	=145	=145
8EEnL	4cc	.
8CC	.	.
8CCJ	8r	.
*	*clefF4	*
8CCL	8D-L	.
8CC	8D-	.
8CCJ	8D-J	.
8CCL	4C	.
8CC	.	.
8CCJ	8r	.
8CCL	4r	.
8CC	.	.
8CCJ	8r	.
*	*clefG2	*
=146	=146	=146
*^	*	*
2.GG	8GGL	([4.een	.
.	8CC	.	.
.	8CCJ	.	.
.	8CCL	4ee]	.
.	8CC	.	.
.	8CCJ	8ff	.
.	.	(ee8q	.
2.AA-	8AA-L	[4.ffT)	.
.	8CC	.	.
.	8CCJ	.	.
.	8CCL	8.ffL]	.
.	8CC	.	.
.	.	16eeL	.
.	8CCJ	16gg	.
.	.	16ffJJ)	.
*v	*v	*	*
=147	=147	=147
8GGL	4een	.
8CC	.	.
8CCJ	8r	.
*	*clefF4	*
8CCL	8D-L	.
8CC	8D-	.
8CCJ	8D-J	.
8CCL	4C	.
8CC	.	.
8CCJ	8r	.
*	*clefG2	*
8CCL	8een 8ggL	.
8CC	8ee 8gg	.
8CCJ	8ee 8ggJ	.
!!LO:LB:g=original
=148	=148	=148
8CCL	4gg 4bb-	.
8CC	.	.
8CCJ	8r	.
*	*clefF4	*
8CCL	8D-L	.
8CC	8D-	.
8CCJ	8D-J	.
8CCL	4C	.
8CC	.	.
8CCJ	8r	.
*	*clefG2	*
8CCL	8gg 8bb-L	.
8CC	8gg 8bb-	.
8CCJ	8gg 8bb-J	.
=149	=149	=149
*	*8va	*
8CCL	16eeenLL	<
.	16bb-	.
8CC	16ggg	.
.	16eee	.
8CCJ	16bbb-	.
.	16gggJJ	.
8CCL	16eeeLL	.
.	16ggg	.
8CC	16bb-	.
.	16eee	.
8CCJ	16gg	.
.	16bb-JJ	.
*	*X8va	*
8CCL	16eeLL	.
.	16gg	.
8CC	16b-	.
.	16ee	.
8CCJ	16g	.
.	16b-JJ	.
8CCL	16enLL	.
.	16g	.
8CC	16B-	.
.	16e	.
8CCJ	16G	.
.	16B-JJ	.
*	*clefF4	*
!!LO:LB:g=original
=150	=150	=150
8CCL	16EnLL<	.
.	16G	.
8CC	16BB-	.
.	16E	.
8CCJ	16GG	.
.	16BB-JJ	.
8CCL	16D-LL	.
.	16BB-	.
8CC	16E	.
.	16D-	.
8CCJ	16G	.
.	16EJJ	.
8GGG 8GGL	8B-	f
8CC	8r	.
8CCJ	8r	.
8FFF 8FFL	8D- 8A- 8d-	f
8CC	8r	.
8CCJ	8r	.
=151	=151	=151
[2.CC [2.EEn	[2.En [2.G [2.c	p
4.CC] 4.EE]	4.E;] 4.G;] 4.c;]	.
[4CC	[4c	pp
16CCLL]	16cLL]	.
16AAAnJJ	16AnJJ	.
*	*clefG2	*
=152	=152	=152
8FFF/	8F<	ff
8r	4F< 4An< 4c 4f	.
[8FFF/ [8AAAn/ [8CC/ [8FF/	.	.
8FFF/] 8AAA/] 8CC/] 8FF/]	4A 4c 4f 4an	.
4FFF/ 4AAA/ 4CC/ 4FF/	.	.
.	4c 4f 4a 4cc	.
4FFF/ 4AAA/ 4CC/ 4FF/	.	.
.	4f 4a 4cc 4ff	.
[8FFF/ [8AAA/ [8CC/ [8FF/	.	.
8FFF/] 8AAA/] 8CC/] 8FF/]	4a 4cc 4ff 4aan	.
4FFF/ 4AAA/ 4CC/ 4FF/	.	.
.	8cc 8ff 8aa 8ccc	.
!!LO:LB:g=original
=153	=153	=153
[2.FFF [2.AAAn [2.CC [2.FF	[2.ff [2.aan [2.ccc [2.fff	sf
4.FFF] 4.AAA] 4.CC] 4.FF]	4.ff] 4.aa] 4.ccc] 4.fff]	.
!LO:S:a	!LO:S:a	!
([4AAA	([4An	p
16AAALL]	16ALL]	.
16CCJJ	16cJJ	.
=154	=154	=154
4.FF	4.f	.
[4AAn	[4an	.
16AALL]	16aLL>]	.
16CJJ	16ccJJ	.
4.F	4.ff	.
4.FF)	4.f)	.
=155	=155	=155
!	!LO:TX:a:i:t=g.	!LO:DY:rj
4rEE	8En< 8G< 8c	ff
!	!LO:TX:a:i:t=d.	!
.	4G< 4c< 4en	.
[8EEn/ [8GG/ [8C/	.	.
8EE/] 8GG/] 8C/]	4c 4e 4g	.
4EE/ 4GG/ 4C/	.	.
.	4e 4g 4cc	.
4EE/ 4GG/ 4C/	.	.
.	4g 4cc 4een	.
[8EE/ [8GG/ [8C/	.	.
8EE/] 8GG/] 8C/]	4cc 4ee 4gg	.
4EE/ 4GG/ 4C/	.	.
.	8ee 8gg 8ccc	.
*clefG2	*	*
!!LO:LB:g=original
=156	=156	=156
*	*^	*
(2.en 2.g	2.ryy	([4.cc	p
.	.	4cc]	.
.	.	8ddn	.
2.f) 2.a-	[4.ddTT	2.bn	.
.	8.ddL]	.	.
.	16ccL	.	.
.	16een	.	.
.	16ddJJ)	.	.
*clefF4	*	*	*
*	*v	*v	*
=157	=157	=157
!	!LO:TX:a:i:t=g.	!
4rEE	8En< 8G< 8c	f
!	!LO:TX:a:i:t=d.	!
.	4G< 4c< 4en	.
[8EEn/ [8GG/ [8C/	.	.
8EE/] 8GG/] 8C/]	4c 4e 4g	.
4EE/ 4GG/ 4C/	.	.
.	4e 4g 4cc	.
4EE/ 4GG/ 4C/	.	.
.	4g 4cc 4een	.
[8EE/ [8GG/ [8C/	.	.
8EE/] 8GG/] 8C/]	4cc 4ee 4gg	.
4EE/ 4GG/ 4C/	.	.
.	8ee 8gg 8ccc	.
*clefG2	*	*
=158	=158	=158
(2.en 2.g	([4.cc	p
.	4cc]	.
.	8ddn	.
2.f) 2.a-	[4.ddTT	.
.	4dd]	.
.	16ccLL	.
.	16ddJJ)	.
*clefF4	*	*
!!LO:LB:g=original
=159	=159	=159
!	!LO:TX:a:i:t=g.	!
4r	8G 8B- 8en	ff
!	!LO:TX:a:i:t=d.	!
.	4B- 4e 4g	.
[8GG [8BB- 8En	.	.
8GG] 8BB-] 8E	4e 4g 4b-	.
4GG 4BB- 4E	.	.
.	4g 4b- 4een	.
4GG 4BB- 4E	.	.
.	4b- 4ee 4gg	.
[8GG [8BB- [8E	.	.
8GG] 8BB-] 8E]	4ee 4gg 4bb-	.
4GG 4BB- 4E	.	.
.	8gg 8bb- 8eeen	.
*clefG2	*	*
=160	=160	=160
(2.g 2.b-	([4.een	p
.	4ee]	.
.	8ff	.
2.a-/) 2.cc/	[4.ffT	.
.	4ff]	.
.	16eeLL	.
.	16ffJJ)	.
*clefF4	*	*
=161	=161	=161
!	!LO:TX:a:i:t=g	!
4r	8en 8g	ff
!	!LO:TX:a:i:t=d.	!
.	4dd- 4een	.
[8BB- [8D- [8En [8G	.	.
8BB-] 8D-] 8E] 8G]	4ee 4gg	.
*clefG2	*	*
4B- 4d- 4en 4g	.	.
.	4gg 4bb-	.
4B- 4d- 4e 4g	.	.
.	4bb- 4ddd-	.
[8B-/ [8d-/ [8e/ [8g/	.	.
8B-] 8d-] 8e] 8g]	4ddd- 4eeen	.
4B- 4d- 4e 4g	.	.
.	8eee 8ggg	.
!!LO:LB:g=original
=162	=162	=162
*	*^	*
2.b- (2.dd-	([4.gg	2.een	f
.	4gg]	.	.
.	8aa-	.	.
2.bn 2.ddn)	[4.aa-TT	2.ff	sf
.	8.aa-L]	.	.
.	16ggL	.	.
.	16bb-	.	.
.	16aa-JJ)	.	.
=163	=163	=163	=163
8cL<	4.gg	4.een	p
8cc	.	.	.
8ccJ	.	.	.
*	*v	*v	*
8ccL	4r	.
8cc	.	.
8ccJ	8r	.
8ccL	2.r	.
8cc	.	.
8ccJ	.	.
8ccL	.	.
8cc	.	.
8ccJ	.	.
=164	=164	=164
8r	4.ff 4.aa-	.
8ccL	.	.
8ccJ	.	.
8f 8a-L	4r	.
8cc	.	.
8ccJ	8r	.
8ccL	2.r	.
8cc	.	.
8ccJ	.	.
8ccL	.	.
8cc	.	.
8ccJ	.	.
!!LO:LB:g=original
=165	=165	=165
8r	(1.ff 1.aa- 1.ddd-	sfp
8ccL	.	.
8ccJ	.	.
8f 8a-L	.	.
8cc	.	.
8ccJ	.	.
8f 8a-L	.	.
8cc	.	.
8ccJ	.	.
8f 8a-L	.	.
8cc	.	.
8ccJ	.	.
=166	=166	=166
8en 8gL	4een 4gg 4ccc)	.
8c	.	.
8cJ	8r	.
8cL	4r	.
8c	.	.
8cJ	8r	.
8cL	4r	.
8c	.	.
8cJ	8r	.
8cL	[4ee [4gg	.
8c	.	.
8cJ	16ee] 16ggLL]	.
.	16ee 16ggJJ	.
*clefF4	*	*
=167	=167	=167
8cL	4ff (4aa-	.
8c	.	.
8cJ	8een 8gg)	.
8cL	8r	.
8c	8r	.
8cJ	8en 8g	.
8cL	8r	.
8c	8r	.
*	*clefF4	*
8cJ	8En 8G	.
8G 8B-L	8r	.
8c	8.r	.
8cJ	.	.
*	*clefG2	*
.	16ee 16gg	.
!!LO:LB:g=original
=168	=168	=168
8cL	4gg (4bb-	.
8c	.	.
8cJ	8ff 8aa-)	.
8cL	8r	.
8c	8r	.
8cJ	8f 8a-	.
8cL	8r	.
8c	8r	.
*	*clefF4	*
8cJ	8F 8A-	.
8F 8A-L	8r	.
8c	8.r	.
8cJ	.	.
*	*clefG2	*
.	16ff 16aa-	.
=169	=169	=169
8r	1.ff 1.aa- (1.ddd-	sfp
8cL	.	.
8cJ	.	.
8F 8A-L	.	.
8c	.	.
8cJ	.	.
8F 8A-L	.	.
8c	.	.
8cJ	.	.
8F 8A-L	.	.
8c	.	.
8cJ	.	.
=170	=170	=170
8r	4een 4gg 4ccc)	.
8cL	.	.
8cJ	8r	.
8En 8GL	4r	>
8c	.	.
8cJ	8r	.
8r	2.e-X 2.f# 2.cc	.
8cL	.	.
8cJ	.	.
8E- 8F#L	.	.
8c	.	.
8cJ	.	.
!!LO:LB:g=original
=171	=171	=171
8r	4dn 4fn 4bn	.
8cL	.	.
8cJ	8r	.
8Dn 8FL	4r	.
8c	.	.
8cJ	8r	.
8r	4d- 4f 4b-	.
8cL	.	.
8cJ	8r	.
8D- 8FL	4r	.
8c	.	.
8cJ	8r	.
=172	=172	=172
8r	4.c 4.f 4.a-	pp
8CL	.	.
8CJ	.	.
8CL	4r	.
8C	.	.
8CJ	8r	.
8CL	2.r	.
8C	.	.
8CJ	.	.
8CL	.	.
8C	.	.
8CJ	.	.
*	*clefF4	*
=173	=173	=173
8r	4.BB-/ 4.C/ 4.En/ 4.G/	.
8CCL	.	.
8CCJ	.	.
8CCL	4r	.
8CC	.	.
8CCJ	8r	.
8CCL	2.r	.
8CC	.	.
8CCJ	.	.
8CCL	.	.
8CC	.	.
8CCJ	.	.
!!LO:LB:g=original
=174	=174	=174
!LO:TX:a:i:t=dolce	!	!
(8FFFL	2.r	.
8AAAn 8CC 8FF	.	.
8FFFJ	.	.
8AAA 8CC 8FFL	.	.
8FFF	.	.
8AAA 8CC 8FFJ	.	.
8FFFL	4r	.
8AAA 8CC 8FF	.	.
!	!LO:TX:b:i:t=dolce	!
8FFFJ	8r	.
8AAA 8CC 8FFL	[4AAn ([4An	.
8FFF	.	.
8AAA 8CC 8FFJ)	16AA] 16ALL]	.
.	16C 16cJJ	.
=175	=175	=175
(8FFFL	4.F 4.f	.
8AAAn 8CC 8FF	.	.
8FFFJ	.	.
8AAA 8CC 8FFL	[4An [4an	.
8FFF	.	.
8AAA 8CC 8FFJ	16A] 16aLL]	.
.	16F 16fJJ	.
8GGGL	4.En 4.en	.
8BBB- 8EEn 8GG	.	.
8GGGJ	.	.
8BBB- 8EE 8GGL	[4G [4g	.
8GGG	.	.
8BBB- 8EE 8GGJ	16G] 16gLL]	.
.	16E 16eJJ	.
=176	=176	=176
8AAAnL	4.F 4.f	.
8CC 8FF 8AAn	.	.
8AAAJ	.	.
8CC 8FF 8AAL	2.C 2.c)	.
8AAA	.	.
8CC 8FF 8AAJ	.	.
8AAAL	.	.
8CC 8FF 8AA	.	.
8AAAJ	.	.
8FFL	[4Dn (>[4dn	.
8BBB-	.	.
8FFJ	16D] 16dLL]	.
.	16BB- 16B-JJ	.
!!LO:LB:g=original
=177	=177	=177
8CCL	4.AAn 4.An	.
8FF	.	.
8CCJ	.	.
8FFL	4C [4c	.
8CC	.	.
8FFJ	16C 16cLL]	.
.	16AA 16AJJ	.
8CCL	4.GG 4.G	.
8EEn	.	.
8CCJ	.	.
8EEL	[4C [4c	.
8CC	.	.
8EEJ)	16C] 16cLL]	.
.	16BB- 16B-JJ)	.
*	*clefG2	*
=178	=178	=178
(8FFL<	(4.An	.
8AAn 8C 8F	.	.
8FFJ	.	.
8AA 8C 8FL<	[4.c)	<
8FF	.	.
8AA 8C 8FJ	.	.
8FFL<	4.c]	.
8AA 8C 8F	.	.
8FFJ	.	.
!	!LO:S:a	!
8AA 8C 8FL<	([4A [4an	.
8FF	.	.
8AA 8C 8FJ	16A] 16aLL]	.
.	16c 16ccJJ	.
=179	=179	=179
8FFL<	4.f 4.ff	.
8AAn 8C 8F	.	.
8FFJ	.	.
8AA 8C 8FL<	[4an [4aan	.
8FF	.	.
8AA 8C 8FJ	16a] 16aaLL]	.
.	16f 16ffJJ	.
8GGL<	4.en 4.een	.
8BB- 8C 8G	.	.
8GGJ	.	.
8BB- 8C 8GL<	4g [4gg	.
8GG	.	.
8BB- 8C 8GJ)	16g 16ggLL]	.
.	16e 16eeJJ)	.
!!LO:LB:g=original
=180	=180	=180
1.AAn 1.C 1.F 1.An	4.f/ ((4.ff/	p
.	[2.c [2.cc))	.
.	4.c] 4.cc]	.
=181	=181	=181
*^	*	*
(4.F	1.BB- 1.D-	4.d- ((4.dd-	f
[2.G-)	.	[2.B- [2.b-))	sf
4.G-]	.	4.B-] 4.b-]	.
*v	*v	*	*
=182	=182	=182
1.C 1.F 1.A-	[2.a-	p
.	4.a-]	.
.	(4g	.
.	8f)	.
=183	=183	=183
1.C 1.En 1.B-	1.gt	.
=184	=184	=184
.	(dd-8q	.
1.r	1.cct)	.
.	(16bnqLL	.
.	16ccqJJ)	.
=185	=185	=185
.	(ddd-8q	.
1.r	1.ccct)	.
.	(16bbnqLL	.
.	16cccqJJ)	.
!!LO:LB:g=original
=186	=186	=186
1.r	8ddd-L	pp
.	8ccc	.
.	8bb-XJ	.
.	8aa-L	.
.	8gg	.
.	8gg-J	.
.	8ffL	.
.	8een	.
.	8ee-J	.
.	8dd-L	.
.	8cc	.
.	8b-J	.
=187	=187	=187
1.r	8a-L	.
.	8gn	.
.	8g-J	.
.	8fL	.
.	8en	.
.	8e-J	.
.	8d-L	.
.	8c	.
.	8B-J	.
*	*clefF4	*
.	8A-L	.
.	8Gn	.
.	8G-J	.
=188	=188	=188
2.r	8FL	.
.	8En	.
.	8E-J	.
.	8D-L	.
.	8C	.
.	8BB-J	.
4r	8AA-L	.
.	8GGn	.
8r	8GG-J	.
8FFL	4r	.
8EEn	.	.
8EE-J	8r	.
=189	=189	=189
8DD-L	1.r	.
8CC	.	.
8BBB-J	.	.
8AAA-L	.	.
8GGGn	.	.
8AAA-J	.	.
8BBB-L	.	.
8CC	.	.
8BBBnJ	.	.
8CCL	.	.
8BBB	.	.
8CCJ	.	.
!!LO:LB:g=original
=190	=190	=190
16FFFLL	16FLL	f
16CC	16C	.
16FF	16AA-	.
16CC	16C	.
16FFF	16F	.
16CCJJ	16CJJ	.
16FFFLL	16A-LL	.
16CC	16C	.
16FFF	16G	.
16CC	16C	.
16FFF	16F	.
16CCJJ	16CJJ	.
16FFFLL	16FLL	.
16CC	16C	.
16FF	16AA-	.
16CC	16C	.
16FFF	16F	.
16CCJJ	16CJJ	.
16FFFLL	16A-LL	.
16CC	16C	.
16FFF	16G	.
16CC	16C	.
16FFF	16F	.
16CCJJ	16CJJ	.
=191	=191	=191
16FFFLL	16d-LL	.
16DD-	16A-	.
16FF	16F	.
16DD-	16A-	.
16FFF	16d-	.
16DD-JJ	16A-JJ	.
16FFFLL	16fLL	.
16DD-	16A-	.
16FFF	16e-	.
16DD-	16A-	.
16FFF	16d-	.
16DD-JJ	16A-JJ	.
16FFFLL	16d-LL	.
16DD-	16A-	.
16FF	16F	.
16DD-	16A-	.
16FFF	16d-	.
16DD-JJ	16A-JJ	.
16FFFLL	16fLL	.
16DD-	16A-	.
16FFF	16e-	.
16DD-'	16A-	.
16FFF	16d-	.
16DD-JJ	16A-JJ	.
*	*clefG2	*
!!LO:LB:g=original
=192	=192	=192
[2.GGG- [2.GG-	16b-LL	ff
.	16dd-	.
.	16b-	.
.	16dd-	.
.	16b-	.
.	16dd-JJ	.
.	16b-LL	.
.	16dd-	.
.	16b-	.
.	16dd-	.
.	16b-	.
.	16dd-JJ	.
4.GGG-] 4.GG-]	16b-LL	.
.	16dd-	.
.	16b-	.
.	16dd-	.
.	16b-	.
.	16dd-JJ	.
8GGGn' 8GGn'L	16b-LL	.
.	16dd-	.
8BBB-'	16g	.
.	16b-	.
8DD-'J	16en	.
.	16gJJ	.
=193	=193	=193
!	!	!LO:HP:b=2
8EEn'<L	16d-LL	<
.	16en	.
8GG'	16B-<	.
.	16d-<	.
8BB-'J	16G<	.
.	16B-<JJ	.
8D-'L	16F<LL	.
.	16G<	.
8D-'	16B-<	.
.	16G<	.
8D-'J	16F<	.
.	16G<JJ	.
(<4.D-xz	16rc<	[
.	16F<LL	.
.	16B-<	.
.	16G<	.
.	16F<	.
.	16B-<JJ	.
4.C)	16rc<	.
.	16En<LL	.
.	16B-<	.
.	16G<	.
.	16E<	.
.	16B-<JJ	.
!!LO:LB:g=original
=194	=194	=194
16FFLL	16fLL	.
16C	16c	.
16F	16A-	.
16C	16c	.
16FF	16f	.
16CJJ	16cJJ	.
16FFLL	16a-LL	.
16C	16c	.
16FF	16g	.
16C	16c	.
16FF	16f	.
16CJJ	16cJJ	.
16FFLL	16fLL	.
16C	16c	.
16F	16A-	.
16C	16c	.
16FF	16f	.
16CJJ	16cJJ	.
16FFLL	16a-LL	.
16C	16c	.
16FF	16g	.
16C	16c	.
16FF	16f	.
16CJJ	16cJJ	.
=195	=195	=195
16FFLL	16dd-LL<	.
16D-	16a-	.
16F	16f	.
16D-	16a-	.
16FF	16dd-	.
16D-JJ	16a-JJ	.
16FFLL	16ffLL	.
16D-	16a-	.
16FF	16ee-	.
16D-	16a-	.
16FF	16dd-	.
16D-JJ	16a-JJ	.
16FFLL	16dd-LL<	.
16D-	16a-	.
16F	16f	.
16D-	16a-	.
16FF	16dd-	.
16D-JJ	16a-JJ	.
16FFLL	16ffLL	.
16D-	16a-	.
16FF	16ee-	.
16D-	16a-	.
16FF	16dd-	.
16D-JJ	16a-JJ	.
!!LO:LB:g=original
=196	=196	=196
[2.GG- [2.G-	16bb-LL	ff
.	16ddd-	.
.	16bb-	.
.	16ddd-	.
.	16bb-	.
.	16ddd-JJ	.
.	16bb-LL	.
.	16ddd-	.
.	16bb-	.
.	16ddd-	.
.	16bb-	.
.	16ddd-JJ	.
4.GG-] 4.G-]	16bb-LL	.
.	16ddd-	.
.	16bb-	.
.	16ddd-	.
.	16bb-	.
.	16ddd-JJ	.
8GGn' 8Gn'L	16bb-LL	.
.	16ddd-	.
8BB-' 8B-'	16bb-	.
.	16ddd-	.
8D-' 8d-'J	16bb-	.
.	16ddd-JJ	.
=197	=197	=197
8En' 8en'	16bb-LL	.
.	16ddd-	.
*clefG2	*	*
!	!	!LO:HP:b=2
8G' 8g'L	16gg	<
.	16bb-	.
8B-' 8b-'J	16ff	.
.	16ggJJ	.
8d-' 8dd-'L	16ffLL	.
.	16gg	.
8d-' 8dd-'	16bb-	.
.	16gg	.
8d-' 8dd-'J	16ff	.
.	16ggJJ	.
!LO:DY:rj	!	!
(4.d-z 4.dd-z	16r	[
.	16ffLL	.
.	16bb-	.
.	16gg	.
.	16ff	.
.	16bb-JJ	.
4.c 4.cc)	16r	.
.	16eenLL	.
.	16bb-	.
.	16gg	.
.	16ee	.
.	16bb-JJ	.
!!LO:LB:g=original
=198	=198	=198
(4.f	16r	sf
.	16dd-LL	.
.	16bb-	.
.	16gg	.
.	16dd-	.
.	16ggJJ	.
4.en)	16r	.
.	16ccLL	.
.	16bb-	.
.	16gg	.
.	16cc	.
.	16ggJJ	.
(4.dd-	16r	sf
.	16ffLL	.
.	16bb-	.
.	16gg	.
.	16ff	.
.	16bb-JJ	.
4.cc)	16r	.
.	16eenLL	.
.	16bb-	.
.	16gg	.
.	16ee	.
.	16bb-JJ	.
=199	=199	=199
16bnLL	8r	.
16ddn	.	.
16ff	8r	.
[16aa-JJ	.	.
8aa-_	16bbnLL	.
.	16dddnJJ	.
*^	*	*
4.aa-]	4.b 4.dd 4.ff	16fffLL	.
.	.	16ddd	.
.	.	16bb	.
.	.	16aaa-	.
.	.	16ggg	.
.	.	16fffJJ	.
*v	*v	*	*
16ccLL	16eeenLL	.
16eenJJ	16ggg	.
[4ee [4gg	16fff	.
.	16eee	.
.	16ddd-	.
.	16cccJJ	.
4.ee] 4.gg]	16bb-LL	.
.	16ddd-	.
.	16ccc	.
.	16bb	.
.	16aa-	.
.	16ggJJ	.
!!LO:LB:g=original
=200	=200	=200
*clefG2	*	*
(4.f 4.a-	16r	p
.	16ffLL	.
.	16aa-	.
.	16ccc	.
.	16fff	.
.	16ffJJ	.
4.b- 4.dd-	8.r	.
.	16fffLL	.
.	16ff	.
.	16fffJJ	.
4.a- 4.cc	8.r	.
.	16fffLL	.
.	16ff	.
.	16fffJJ	.
4.g 4.b- 4.cc	8.r	sfp
.	16eeenLL	.
.	16een	.
.	16eeeJJ	.
=201	=201	=201
4.f) 4.a-	16r	.
.	16ffLL	.
.	16aa-	.
.	16ccc	.
.	16fff	.
.	16ffJJ	.
*clefF4	*	*
4.B- (4.d-	8.r	.
.	16ffLL	.
.	16f	.
.	16ffJJ	.
4.A- 4.c	8.r	.
.	16ffLL	.
.	16f	.
.	16ffJJ	.
4.G 4.B- 4.c)	8.r	sfp
.	16eenLL	.
.	16en	.
.	16eeJJ	.
=202	=202	=202
4.F 4.A-	16r	.
.	16ffLL	.
.	16aa-	.
.	16ccc	.
.	16fff	.
.	16ffJJ	.
(4.BB- 4.D-	8.r	.
.	16fffLL	.
.	16ff	.
.	16fffJJ	.
4.AA- 4.C	8.r	.
.	16fffLL	.
.	16ff	.
.	16fffJJ	.
4.GG) 4.BB- 4.C	8.r	sfp
.	16eeenLL	.
.	16een	.
.	16eeeJJ	.
!!LO:LB:g=original
=203	=203	=203
(2.FF	16fffLL	p
.	16ccc	.
.	16aa-	>
.	16ccc	.
.	16fff	.
.	16cccJJ	.
.	16aa-LL	.
.	16ccc	.
.	16fff	.
.	16ccc	.
.	16aa-	.
.	16cccJJ	.
4.CC	16fffLL	.
.	16ccc	.
.	16aa-	.
.	16ccc	.
.	16fff	.
.	16cccJJ	.
4.AAA-)	16fffLL	.
.	16ccc	.
.	16fff	.
.	16ccc	.
.	16fff	.
.	16cccJJ	.
=204	=204	=204
[2.FFF	16fffLL	pp
.	16ccc	.
.	16aa-	.
.	16ccc	.
.	16fff	.
.	16cccJJ	.
.	16aa-LL	.
.	16ccc	.
.	16fff	.
.	16ccc	.
.	16aa-	.
.	16cccJJ	.
4.FFF]	16fffLL	.
.	16ccc	.
.	16aa-	.
.	16ccc	.
.	16fff	.
.	16cccJJ	.
([4AAA-	16aa-LL	.
.	16ccc	.
.	16fff	.
.	16ccc	.
16AAA-LL]	16aa-	.
16CCJJ	16cccJJ	.
!!LO:LB:g=original
=205	=205	=205
4.FF	16fffLL	.
.	16ccc	.
.	16aa-	.
.	16ccc	.
.	16fff	.
.	16cccJJ	.
[4AA-	16aa-LL	.
.	16ccc	.
.	16fff	.
.	16ccc	.
16AA-LL]	16aa-	.
16CJJ	16cccJJ	.
4.F	16fffLL	.
.	16ccc	.
.	16aa-	.
.	16ccc	.
.	16fff	.
.	16cccJJ	.
4.FF)	16aa-LL	.
.	16ccc	.
.	16fff	.
.	16ccc	.
.	16aa-	.
.	16cccJJ	.
=206	=206	=206
[2.GG-	16eee-LL	.
.	16ccc	.
.	16aa-	.
.	16ccc	.
.	16eee-	.
.	16cccJJ	.
.	16aa-LL	.
.	16ccc	.
.	16eee-	.
.	16ccc	.
.	16aa-	.
.	16cccJJ	.
4.GG-]	16eee-LL	.
.	16ccc	.
.	16aa-	.
.	16ccc	.
.	16eee-	.
.	16cccJJ	.
!LO:S:b	!	!
([4C	16aa-LL	.
.	16ccc	.
.	16eee-	.
.	16ccc	.
16CLL>]	16aa-	.
16E-JJ	16cccJJ	.
!!LO:LB:g=original
=207	=207	=207
4.G-	16eee-LL	.
.	16ccc	.
.	16aa-	.
.	16ccc	.
.	16eee-	.
.	16cccJJ	.
[4c	16aa-LL	.
.	16ccc	.
.	16eee-	.
.	16ccc	.
16cLL]	16aa-	.
16e-JJ	16cccJJ	.
4.g-	16eee-LL	.
.	16ccc	.
.	16aa-	.
.	16ccc	.
.	16eee-	.
.	16cccJJ	.
4.G-)	16aa-LL	.
.	16ccc	.
.	16eee-	.
.	16ccc	.
.	16aa-	.
.	16cccJJ	.
=208	=208	=208
(<4.F	16fffLL	<
.	16ddd-	.
.	16aa-	.
.	16ddd-	.
.	16fff	.
.	16ddd-JJ	.
[4A-	16aa-LL	.
.	16ddd-	.
.	16fff	.
.	16ddd-	.
16A-LL]	16aa-	.
16d-JJ	16ddd-JJ	.
4.f	16fffLL	.
.	16ddd-	.
.	16aa-	.
.	16ddd-	.
.	16fff	.
.	16ddd-JJ	.
4.F)	16aa-LL	.
.	16ddd-	.
.	16fff	.
.	16ddd-	.
.	16aa-	.
.	16ddd-JJ	.
!!LO:LB:g=original
=209	=209	=209
(>[4E-	16ggg-LL	.
.	16ccc	.
.	16aa-	.
.	16ccc	.
16E-LL]	16ggg-	.
16G-JJ	16cccJJ	.
[4A-	16aa-LL	.
.	16ccc	.
.	16ggg-	.
.	16ccc	.
16A-LL]	16aa-	.
16cJJ	16cccJJ	.
*clefG2	*	*
[4e-	16ggg-LL	.
.	16ccc	.
.	16aa-	.
.	16ccc	.
16e-LL]	16ggg-	.
16g-JJ	16cccJJ	.
[4a-	16ggg-LL	.
.	16eee-	.
.	16aa-	.
.	16eee-	.
16a-LL>]	16ggg-	.
16ccJJ)	16eee-JJ	.
=210	=210	=210
(8d-L	4fff	p
8f 8a- 8dd-	.	.
8d-J	8r	.
8f 8a- 8dd-L	4r	.
8d-	.	.
8f 8a- 8dd-J	8r	.
8d-L	4r	.
8f 8a- 8dd-	.	.
8d-J	8r	.
8f 8a- 8dd-L	([4ff	.
8d-	.	.
8f 8a- 8dd-J)	16ffLL]	.
.	16aa-JJ	.
=211	=211	=211
(8d-L	4.ddd-	.
8f 8a- 8dd-	.	.
8d-J	.	.
8f 8a- 8dd-L	[4fff	.
8d-	.	.
8f 8a- 8dd-J	16fffLL]	.
.	16ddd-JJ	.
8e-L	4.ccc	.
8g- 8a- 8ee-	.	.
8e-J	.	.
8g- 8a- 8ee-L	[4eee-	.
8e-	.	.
8g-) 8a- 8ee-J	16eee-LL]	.
.	16cccJJ)	.
!!LO:LB:g=original
=212	=212	=212
8fL	(4.ddd-	.
8a- 8dd- 8ff	.	.
8fJ	.	.
8a- 8dd- 8ffL>	2.aa-)	.
8f	.	.
8a- 8dd- 8ffJ	.	.
8fL	.	.
8a- 8dd- 8ff	.	.
8fJ	.	.
8a- 8dd-L	([4ff	.
8f	.	.
8a- 8dd-J	16ffLL]	.
.	16aa-JJ	.
=213	=213	=213
8fL	4.ddd-	<
8a- 8dd- 8ff	.	.
8fJ	.	.
8a- 8dd- 8ffL>	[4fff	.
8f	.	.
8a- 8dd- 8ffJ	16fffLL]	.
.	16ddd-JJ	.
8f#L	4.ccc	.
8an 8cc 8ee-	.	.
8f#J	.	.
8a 8cc 8ee-L	[4eee-	.
8f#	.	.
8a 8cc 8ee-J	16eee-LL]	.
.	16cccJJ)	.
=214	=214	=214
8fnL	(4.bbn	.
8a-X 8bn 8ddn	.	.
8fJ	.	.
8a- 8b 8ddL	2.dddnz)	.
8f	.	.
8a- 8b 8ddJ	.	.
8fL	.	.
8a- 8b 8dd	.	.
8fJ	.	.
8a- 8b 8ddL	[4ddd	.
8f	.	.
8a- 8b 8ddJ	16dddLL]	.
.	16bbJJ	.
!!LO:LB:g=original
=215	=215	=215
8enL<	(4.ccc	.
8g 8cc 8een	.	.
8eJ	.	.
!	!LO:DY:b	!
8g 8cc 8eeL<	2.eeenz)	.
8e	.	.
8g 8cc 8eeJ	.	.
8eL<	.	.
8g 8cc 8ee	.	.
8eJ	.	.
8g 8cc 8eeL<	[4gg [4ggg	.
8e	.	.
8g 8cc 8eeJ	16gg] 16gggLL]	.
.	16ff 16fffJJ	.
=216	=216	=216
8B-XL	4.een ((4.eeen	.
8d- 8en 8g	.	.
8B-J	.	.
!	!LO:DY:b	!
8d- 8e 8gL	[4.ggz [4.gggz))	.
8B-	.	.
8d- 8e 8gJ	.	.
8B-L	4.gg] 4.ggg]	.
8d- 8e 8g	.	.
8B-J	.	.
8d- 8e 8gL	[4gg [4ggg	.
8B-	.	.
8d- 8e 8gJ	16gg] 16gggLL]	.
.	16ee 16eeeJJ	.
=217	=217	=217
8A-L	4.ff ((4.fff	.
8c 8f 8a-	.	.
8A-J	.	.
!	!LO:DY:b	!
8c 8f 8a-L	[4.aa-z [4.aaa-z))	.
8A-	.	.
8c 8f 8a-J	.	.
8A-L	4.aa-] 4.aaa-]	.
8c 8f 8a-	.	.
8A-J	.	.
8c 8f 8a-L	[4aa- [4aaa-	.
8A-	.	.
8c 8f 8a-J	16aa-] 16aaa-LL]	.
.	16ff 16fffJJ	.
*clefF4	*	*
!!LO:LB:g=original
=218	=218	=218
*ped	*	*
8BBB- 8BB-	16r	ff
.	(16d-LL	.
8r	16B-	.
.	16g-JJ)	.
(16D-LL	8r	.
16G-JJ	.	.
8B-)	16r	.
.	(16g-LL	.
8r	16d-	.
.	16b-JJ)	.
(16G-LL	8r	.
16B-JJ	.	.
8d-)	16r	.
.	(16b-LL	.
8r	16g-	.
.	16dd-JJ)	.
*clefG2	*	*
(16B-LL	8r	.
16d-JJ	.	.
8g-)	16r	.
.	(16dd-LL	.
8r	16b-	.
.	16gg-JJ)	.
(16d-LL	8r	.
16g-JJ	.	.
=219	=219	=219
8b-)	16r	.
.	(16gg-LL	.
8r	16dd-	.
.	16bb-JJ)	.
(16g-LL	8r	.
16b-JJ	.	.
8dd-)	16r	.
.	(16bb-LL	.
8r	16gg-	.
.	16ddd-JJ)	.
(16b-LL	8r	.
16dd-JJ	.	.
8gg-)	16r	.
.	(16ddd-LL	.
8r	16bb-	.
.	16ggg-JJ)	.
(16dd-LL	8r	.
16gg-JJ	.	.
8bb-)	8r	.
8r	(16ggg-LL	.
.	16ddd-J	.
8r	8bbb-J)	.
.	.	.
*Xped	*	*
*clefF4	*	*
!!LO:LB:g=original
=220	=220	=220
*ped	*	*
!	!	!LO:DY:t=sempre %s
8CC 8C	16r	ff
.	(16e-LL	.
8r	16c	.
.	16anJJ)	.
(16E-LL	8r	.
16AnJJ	.	.
8c)	16r	.
.	(16aLL	.
8r	16e-	.
.	16ccJJ)	.
*clefG2	*	*
(16AnLL	8r	.
16cJJ	.	.
8e-)	16r	.
.	(16ccLL	.
8r	16a	.
.	16ee-JJ)	.
(16cLL	8r	.
16e-JJ	.	.
8an)	16r	.
.	(16ee-LL	.
8r	16cc	.
.	16aanJJ)	.
(<16e-LL	8r	.
16aJJ	.	.
=221	=221	=221
8cc)	16r	.
.	(16aanLL	.
8r	16ee-	.
.	16cccJJ)	.
(16anLL	8r	.
16ccJJ	.	.
8ee-)	16r	.
.	(16cccLL	.
8r	16aa	.
.	16eee-JJ)	.
(16ccLL	8r	.
16ee-JJ	.	.
8aan)	16r	.
.	(16eee-LL	.
8r	16ccc	.
.	16aaanJJ)	.
(16ee-LL	8r	.
16aaJJ	.	.
8ccc)	8r	.
8r	(16aaaLL	.
.	16eee-J	.
8r	8ccccJ)	.
*clefF4	*	*
!!LO:LB:g=original
=222	=222	=222
*ped	*	*
8DD- 8D-	16r	.
.	(16fLL	.
8r	16d-	.
.	16b-JJ)	.
(16FLL	8r	.
16B-JJ	.	.
8d-)	8r	.
8r	(16b-LL	.
.	16fJ	.
*Xped	*	*
8r	8dd-J)	.
*ped	*	*
8EEn 8En	16r	.
.	(16gLL	.
8r	16en	.
.	16ccJJ)	.
(16GLL	8r	.
16cJJ	.	.
8en)	8r	.
8r	(16ccLL	.
.	16gJ	.
*Xped	*	*
8r	8eenJ)	.
=223	=223	=223
*ped	*	*
8FF 8F	16r	.
.	(16a-LL	.
8r	16f	.
.	16dd-JJ)	.
(16A-LL	8r	.
16d-JJ	.	.
8f)	8r	.
8r	(16dd-LL	.
.	16a-J	.
*Xped	*	*
8r	8ffJ)	.
*ped	*	*
8GG 8G	16r	.
.	(16b-LL	.
8r	16g	.
.	16eenJJ)	.
(16B-LL	8r	.
16enJJ	.	.
8g)	8r	.
8r	(16eeLL	.
.	16b-J	.
*Xped	*	*
8r	8ggJ)	.
!!LO:LB:g=original
=224	=224	=224
8AA-	16r	.
.	(16ccLL	.
8r	16a-	.
.	16ffJJ)	.
16A-LL	8r	.
16cJJ	.	.
8BB-	16r	.
.	(16dd-LL	.
8r	16b-	.
.	16ggJJ)	.
16B-LL	8r	.
16d-JJ	.	.
8C	16r	.
.	(16ee-LL	.
8r	16cc	.
.	16aanJJ)	.
16cLL	8r	.
16e-JJ	.	.
8D-	16r	.
.	(16ffLL	.
8r	16dd-	.
.	16bb-JJ)	.
16d-LL	8r	.
16fJJ	.	.
=225	=225	=225
8En	16r	.
.	(16ggLL	.
8r	16een	.
.	16cccJJ)	.
*clefG2	*	*
16enLL	8r	.
16gJJ	.	.
8F	16r	.
.	(16aa-LL	.
8r	16ff	.
.	16ddd-JJ)	.
16fLL	8r	.
16a-JJ	.	.
8G	16r	.
.	(16bb-LL	.
8r	16gg	.
.	16eeenJJ)	.
16gLL	8r	.
16b-JJ	.	.
8A-	16r	.
.	(16cccLL	.
8r	16aa-	.
.	16fffJJ)	.
16a-LL>	8r	.
16ccJJ	.	.
!!LO:LB:g=original
=226	=226	=226
8B-	16r	.
.	(16ddd-LL	.
8r	16bb-	.
.	16gggJJ)	.
16b-LL	8r	.
16dd-JJ	.	.
8c	16r	.
.	(16eee-XLL	.
8r	16ccc	.
.	16aaanJJ)	.
16ccLL	8r	.
16ee-JJ	.	.
8d-	16r	.
.	(16fffLL	.
8r	16ddd-	.
.	16bbb-JJ)	.
16dd-LL	8r	.
16ffJJ	.	.
8d-	16r	.
.	(16fffLL	.
8r	16ddd-	.
.	16bbb-JJ)	.
16dd-LL	8r	.
16ffJJ	.	.
=227	=227	=227
*ped	*	*
16d-LL>	8r	ff
16dd-	.	.
16ffJJ	16r	.
16r	16fffLL	.
8r	16ddd-	.
.	16bbb-JJ	.
4r	16fffLL	.
.	16ddd-	.
.	16bb-	.
.	16ff	.
8r	16dd-	.
.	16bb-JJ	.
2.r	16ffLL<	.
.	16dd-	.
.	16b-	.
.	16f	.
.	16d-	.
.	16b-JJ	.
*	*clefF4	*
.	16fLL	.
.	16d-	.
.	16B-	.
.	16F	.
.	16D-	.
.	16B-JJ	.
*clefF4	*	*
!!LO:LB:g=original
=228	=228	=228
1.r	16F<LL/	.
.	16D-</	.
.	16BB-</	.
.	16D-</	.
.	16F\	.
.	16B-JJ\	.
*	*clefG2	*
.	16d-LL	.
.	16f	.
.	16b-	.
.	16dd-	.
.	16ff	.
.	16dd-JJ	.
.	16b-LL	.
.	16dd-	.
.	16ff	.
.	16bb-	.
.	16ddd-	.
.	16bb-JJ	.
*	*8va	*
.	16fffLL	.
.	16ddd-	.
.	16bbb-	.
.	16fff	.
.	16ddd-	.
.	16bb-JJ	.
*clefG2	*	*
=229	=229	=229
*ped	*	*
16dnLL>	8r	ff
16ddn	.	.
16ffJJ	16r	.
16r	16aaa-LL	.
8r	16fff	.
.	16bbbnJJ	.
4r	16aaa-LL	.
.	16fff	.
.	16dddn	.
.	16bbn	.
8r	16aa-	.
.	16ffJJ	.
*	*X8va	*
2.r	16bbLL	.
.	16aa-	.
.	16ff	.
.	16ddny	.
.	16bny	.
.	16a-JJ	.
.	16ddLL<	.
.	16b	.
.	16a-	.
.	16f	.
.	16dn	.
.	16BnJJ	.
*clefF4	*	*
!!LO:LB:g=original
=230	=230	=230
1.ryy	16a-LL	.
.	16f	.
.	16dn	.
.	16Bn<	.
.	16A-<	.
.	16F<JJ	.
.	16Dn<LL	.
.	16BBn<	.
.	16D<	.
.	16F<JJ	.
.	16A-<LL	.
.	16B<JJ	.
.	16dLL	.
.	16f	.
.	16a-	.
.	16bn	.
.	16ddn	.
.	16ffJJ	.
*	*8va	*
.	16aa-LL	.
.	16bbny	.
.	16dddny	.
.	16fff	.
.	16aaa-	.
.	16bbbnJJ	.
*Xped	*	*
=231	=231	=231
*ped	*	*
8CC	8r	ff
8r	16r	.
.	16aaa-LL	.
8r	16fff	.
.	16ccccJJ	.
4r	16aaa-LL	.
.	16fff	.
.	16ccc	.
.	16aa-	.
8r	16ff	.
.	16cccJJ	.
*	*X8va	*
2.rD	16aa-LL	.
.	16ff	.
.	16cc	.
.	16a-	.
.	16f	.
.	16ccJJ	.
.	16a-LL	.
.	16f	.
.	16c<	.
.	16A-<	.
.	16F<	.
.	16c<JJ	.
!!LO:LB:g=original
=232	=232	=232
16A-LL>	2.ryy	.
16FJJ	.	.
16CLL	.	.
16AA-	.	.
16FF	.	.
16CCJJ	.	.
16FFLL	.	.
16AA-	.	.
16CJJ	.	.
16FLL>	.	.
16A-	.	.
16cJJ	.	.
2.ryy	16fLL	.
.	16a-	.
.	16cc	.
.	16ff	.
.	16aa-	.
.	16cccJJ	.
*	*8va	*
.	16fffLL	.
.	16aaa-	.
.	16cccc	.
.	16aaa-	.
.	16fff	.
.	16cccJJ	.
*Xped	*	*
=233	=233	=233
16CCLL<	8r	ff
16C	.	.
16En	16r	.
16GJ	16gggLL	.
8B-J	16eeen	.
.	16bbb-JJ	.
4r	16gggLL	.
.	16eee	.
.	16ccc	.
*	*X8va	*
.	16bb-	.
8r	16gg	.
.	16eeJJ	.
2.r	16ccLL	.
.	16b-	.
.	16g	.
.	16en	.
.	16c<	.
.	16B-<JJ	.
.	16G<LL	.
.	16En<	.
.	16C<JJ	.
.	16BB-<LL<	.
.	16GG<	.
.	16EEn<JJ	.
!!LO:LB:g=original
=234	=234	=234
*ped	*	*
1.r	16CC<LL<	.
.	16EEn<	.
.	16GG<	.
.	16BB-<JJ	.
.	16C<LL	.
.	16En<JJ	.
.	16G<LL	.
.	16B-<	.
.	16c<	.
.	16en	.
.	16g	.
.	16b-JJ	.
.	16ccLL	.
.	16een	.
.	16gg	.
.	16ee	.
.	16cc	.
.	16eeJJ	.
.	16ggLL	.
.	16ee	.
.	16bb-	.
.	16gg	.
.	16ee	.
.	16ggJJ	.
=235	=235	=235
*MM140	*MM140	*
4r	4bb-	p
!	!LO:TX:a:B:t=Rit.	!
8r	8r	>
8D-L>	4r	.
8D-	.	.
8D-J	8r	.
4C	4r	.
8r	8r	.
4r	8een 8ggL	.
.	8ee 8gg	.
8r	8ee 8ggJ	.
=236	=236	=236
*MM130	*MM130	*
4r	4gg 4bb-	.
8r	8r	.
8D-L>	4r	.
8D-	.	.
8D-J	8r	.
4C	4r	.
8r	8r	.
4r	8en 8gL	.
.	8e 8g	.
8r	8e 8gJ	.
!!LO:LB:g=original
=237	=237	=237
*MM120	*MM120	*
4r	4g 4b-	.
8r	8r	.
8DD-L	4r	.
8DD-	.	.
8DD-J	8r	.
*Xped	*	*
*MM110	*MM110	*
4.CC	2.r	.
8DD-L	.	.
8DD-	.	.
8DD-J	.	.
=238	=238	=238
!!!OMD: Adagio
*MM100	*MM100	*
4.CC	4r	.
.	8r	.
*MM90	*MM90	*
(8DD-'L	8g' 8b-' (8een'L	pp<
8DD-'	8g' 8b-' 8ee'	.
8DD-'J)	8g' 8b-' 8ee'J)	.
*ped	*	*
4.CC;	4.g; 4.b-; 4.ee;	[
.	.	.
*Xped	*	*
=||	=||	=|||
!!!OMD: Più allegro
*MM144	*MM144	*
8CC 8CL	8een 8gg 8bb- 8ccc 8eeenL	ff
8CC 8C	8ee 8gg 8bb- 8ccc 8eee	.
8CC 8CJ	8ee 8gg 8bb- 8ccc 8eeeJ	.
=239	=239	=239
!	!	!
8FFF 8FF	4ff 4aa- 4ccc 4fff	.
*clefG2	*	*
(8c 8fL	.	.
8A-J	8r	.
8c 8fL	4r	.
8A-	.	.
8c 8fJ	8r	.
8A-L	4r	.
8c 8f	.	.
8A-J	8r	.
8c 8fL	(>[4a-	p
8A-	.	.
8c 8fJ)	16a-LL]	.
.	16ccJJ	.
!!LO:LB:g=original
=240	=240	=240
(8A-L	4.ff	.
8c 8f	.	.
8A-J	.	.
8c 8fL	[4aa-	.
8A-	.	.
8c 8fJ	16aa-LL]	.
.	16ffJJ	.
8B-L	4.een	.
8c 8g	.	.
8B-J	.	.
8c 8gL	[4gg	.
8B-	.	.
8c) 8gJ	16ggLL]	.
.	16eeJJ)	.
=241	=241	=241
(8A-L	(4.ff	.
8c 8f	.	.
8A-J	.	.
8c 8fL	2.cc)	.
8A-	.	.
8c 8fJ	.	.
8A-L	.	.
8c 8f	.	.
8A-J	.	.
8c 8fL	[4a- (>[4aa-	.
8A-	.	.
8c 8fJ)	16a-] 16aa-LL]	.
.	16cc 16cccJJ	.
=242	=242	=242
*	*8va	*
(8A-L	4.ff 4.fff	.
8c 8f 8a-	.	.
8A-J	.	.
8c 8f 8a-L	[4aa- [4aaa-	.
8A-	.	.
8c 8f 8a-J	16aa-] 16aaa-LL]	.
.	16ff 16fffJJ	.
8B-L	4.een 4.eeen	.
8c 8en 8g	.	.
8B-J	.	.
8c 8e 8gL	[4gg [4ggg	.
8B-	.	.
8c) 8e 8gJ	16gg] 16gggLL]	.
.	16ee 16eeeJJ)	.
!!LO:LB:g=original
=243	=243	=243
(8AnL	((4.gg-z 4.ggg-z	.
8c 8e-X 8g-	.	.
8AJ	.	.
8c 8e- 8g-L	[4.cc [4.ccc))	.
8A	.	.
8c 8e- 8g-J	.	.
8AL	4.cc] 4.ccc]	.
8c 8e- 8g-	.	.
8AJ	.	.
*	*X8va	*
8c 8e- 8g-L	[4ee- [4eee-	.
8A	.	.
8c) 8e- 8g-J	16ee-] 16eee-LL]	.
.	16cc 16cccJJ	.
=244	=244	=244
(8AnL	4.ffz ((4.fffz	.
8c 8e- 8f	.	.
8AJ	.	.
8d- 8fL	[4.b- [4.bb-))	.
8B-	.	.
8d- 8fJ	.	.
8B-L	4.b-] 4.bb-]	.
8d- 8f	.	.
8B-J	.	.
8en 8gnL	[4dd- [4ddd-	.
8B-	.	.
8e) 8gJ	16dd-] 16ddd-LL]	.
.	16b- 16bb-JJ	.
*clefF4	*	*
=245	=245	=245
(8CL	4.a-X 4.aa-X	.
8F 8A-X 8c	.	.
8CJ	.	.
8F 8A- 8cL	[4cc [4ccc	.
8C	.	.
8F 8A- 8cJ	16cc] 16cccLL]	.
.	16a- 16aa-JJ	.
8BB-L<	4.g 4.gg	.
8C 8En 8G	.	.
8BB-J	.	.
8C 8E 8GL	[4gg [4ggg	.
8BB-	.	.
8C 8E 8GJ)	16gg] 16gggLL]	.
.	16een 16eeenJJ	.
!!LO:LB:g=original
=246	=246	=246
(8AAnL<	4.gg-z (4.ggg-z	.
8E-X 8G- 8An	.	.
8AAJ	.	.
8E- 8G- 8AL	[4.cc [4.ccc)	.
8AA	.	.
8E- 8G- 8AJ	.	.
8AAL<	4.cc] 4.ccc]	.
8E- 8G- 8A	.	.
8AAJ	.	.
8E- 8G- 8AL	[4ee- [4eee-	.
8AA	.	.
8E- 8G- 8AJ)	16ee-] 16eee-LL]	.
.	16cc 16cccJJ	.
=247	=247	=247
(8AAnL<	4.ffz (4.fffz	.
8E- 8F 8An	.	.
8AAJ	.	.
8D- 8F 8B-L	[4.b- [4.bb-)	.
8BB-	.	.
8D- 8F 8B-J	.	.
8BB-L<	4.b-] 4.bb-]	.
8D- 8F 8B-	.	.
8BB-J	.	.
8En 8Gn 8B-L	[4dd- [4ddd-	.
8BB-	.	.
8E 8G 8B-J)	16dd-] 16ddd-LL]	.
.	16b- 16bb-JJ	.
=248	=248	=248
(8CL	4.a- 4.aa-	.
8F 8A-X 8c	.	.
8CJ	.	.
8F 8A- 8cL	[4cc [4ccc	.
8C	.	.
8F 8A- 8cJ	16cc] 16cccLL]	.
.	16a- 16aa-JJ	.
8CL	4.g (4.gg	.
8En 8G 8c	.	.
8CJ	.	.
8E 8G 8cL	4cc 4ccc)	.
8C	.	.
8E 8G 8cJ)	8cc 8ccc	.
!!LO:LB:g=original
=249	=249	=249
4FF 4AA- 4C 4F	8cc 8ccc	.
.	8c 8f 8a- 8ccL	.
8r	8c 8f 8a- 8ccJ	.
8r	4.cz 4.fz 4.a-z 4.ccz	.
8F 8A-L	.	.
8F 8A-J	.	.
4En 4G	8r	.
.	8c 8en 8g 8ccL	.
8r	8c 8e 8g 8ccJ	.
8r	4.cz 4.gz 4.b-z 4.ccz	.
8G 8B-L	.	.
8G 8B-J	.	.
=250	=250	=250
4F 4A-	8r	.
.	8c 8f 8a- 8ccL	.
8r	8c 8f 8a- 8ccJ	.
8r	4.cz 4.fz 4.a-z 4.ccz	.
8F 8A-L	.	.
8F 8A-J	.	.
4En 4G	8r	.
.	8c 8en 8g 8ccL	.
8r	8c 8e 8g 8ccJ	.
8r	4.cz 4.gz 4.b-z 4.ccz	.
8G 8B-L	.	.
8G 8B-J	.	.
=251	=251	=251
8F 8A-	8r	.
8r	8c 8f 8a- 8cc	.
8F 8A-	8r	.
8r	8d- 8f 8g 8dd-	.
8BB- 8F 8G	8r	.
8r	8d- 8f 8g 8dd-	.
8C 8F 8A-	8r	.
8r	8c 8f 8a- 8cc	.
8C 8F 8A-	8r	.
8r	8c 8en 8g 8cc	.
8C 8En 8G	8r	.
8r	8c 8e 8g 8cc	.
!!LO:LB:g=original
=252	=252	=252
8FF 8AA- 8C 8F	8c 8f 8a- 8cc	.
*	*clefF4	*
8r	8C 8F 8A- 8cL	.
8r	8C 8F 8A- 8cJ	.
8r	4.Cz 4.Fz 4.A-z 4.cz	.
8FF 8AA-L	.	.
8FF 8AA-J	.	.
4EEn 4GG	8r	.
.	8C 8En 8G 8cL	.
8r	8C 8E 8G 8cJ	.
8r	4.Cz 4.Gz 4.B-z 4.cz	.
8GG 8BB-L	.	.
8GG 8BB-J	.	.
=253	=253	=253
4FF 4AA-	8r	.
.	8C 8F 8A- 8cL	.
8r	8C 8F 8A- 8cJ	.
8r	4.Cz 4.Fz 4.A-z 4.cz	.
8FF 8AA-L	.	.
8FF 8AA-J	.	.
4EEn 4GG	8r	.
.	8C 8En 8G 8cL	.
8r	8C 8E 8G 8cJ	.
8r	4.Cz 4.Gz 4.B-z 4.cz	.
8GG 8BB-L	.	.
8GG 8BB-J	.	.
=254	=254	=254
8FF 8AA-	8r	.
8r	8C 8F 8A- 8c	.
8FF 8AA-	8r	.
8r	8D- 8F 8G 8d-	.
8BBB- 8FF 8GG	8r	.
8r	8D- 8F 8G 8d-	.
8CC 8FF 8AA-	8r	.
8r	8C 8F 8A- 8c	.
8CC 8FF 8AA-	8r	.
8r	8C 8En 8G 8c	.
8BBB- 8EEn 8GG	8r	.
8r	8C 8E 8G 8c	.
*	*clefG2	*
!!LO:LB:g=original
=255	=255	=255
8AAA- 8CC 8FF 8AA-	8r	.
8r	8c 8f 8a- 8cc	.
8AAA- 8CC 8FF 8AA-	8r	.
8r	8d- 8f 8g 8dd-	.
8BBB- 8FF 8GG 8BB-	8r	.
8r	8d- 8f 8g 8dd-	.
8CC 8FF 8AA- 8C	8r	.
8r	8c 8f 8a- 8cc	.
8CC 8FF 8AA- 8C	8r	.
8r	8c 8en 8g 8cc	.
8BBB- 8EEn 8GG 8BB-	8r	.
8r	8c 8e 8g 8cc	.
=256	=256	=256
8AAA- 8CC 8FF 8AA-	8r	ff
8r	8cc 8ff 8aa- 8ccc	.
8AAA- 8CC 8FF 8AA-	8r	.
8r	8dd- 8ff 8gg 8ddd-	.
8BBB- 8FF 8GG 8BB-	8r	.
8r	8dd- 8ff 8gg 8ddd-	.
8CC 8FF 8AA- 8C	8r	.
8r	8cc 8ff 8aa- 8ccc	.
8CC 8FF 8AA- 8C	8r	.
8r	8cc 8een 8gg 8ccc	.
8CC 8EEn 8GG 8C	8r	.
8r	8cc 8ee 8gg 8ccc	.
=257	=257	=257
*ped	*	*
4FFF 4FF	16cLL	ff
.	16A-	.
.	16c	.
.	16A-	.
8r	16c	.
.	16A-JJ	.
*clefG2	*	*
[4a-	16cLL	p
.	16A-	.
.	16c	.
.	16A-	>
16a-LL]	16c	.
16ccJJ	16A-JJ	.
4.ff	16cLL	.
.	16A-	.
.	16c	.
.	16A-	.
.	16c	.
.	16A-JJ	.
[4aa-	16cLL	.
.	16A-	.
.	16c	.
.	16A-	.
16aa-LL]	16c	.
16cccJJ	16A-JJ	.
!!LO:LB:g=original
=258	=258	=258
!LO:S:b	!	!
(4.fff	16cLL	.
.	16A-	.
.	16c	.
.	16A-	.
.	16c	.
.	16A-JJ	.
[4ccc	16cLL	.
.	16A-	.
.	16c	.
.	16A-	.
16cccLL]	16c	.
16aa-JJ	16A-JJ	.
4.ff	16cLL	.
.	16A-	.
.	16c	.
.	16A-	.
.	16c	.
.	16A-JJ	.
[4cc	16cLL	.
.	16A-	.
.	16c	.
.	16A-	.
16ccLL]	16c	.
16a-JJ)	16A-JJ	.
=259	=259	=259
(4.f	16cLL	.
.	16A-	.
.	16c	.
.	16A-	.
.	16c	.
.	16A-JJ	.
*clefF4	*	*
[4c	16a-LL	.
.	16f	.
.	16a-	.
.	16f	.
16cLL]	16a-	.
16A-JJ	16fJJ	.
4.F	16ccLL>	.
.	16a-	.
.	16cc	.
.	16a-	.
.	16cc	.
.	16a-JJ	.
[4C	16ccLL>	.
.	16a-	.
.	16cc	.
.	16a-	.
16CLL]	16cc	.
16AA-JJ	16a-JJ	.
!!LO:LB:g=original
=260	=260	=260
4.FF	16ccLL>	.
.	16a-	.
.	16cc	.
.	16a-	.
.	16cc	.
.	16a-JJ	.
[4CC	16ccLL>	.
.	16a-	.
.	16cc	.
.	16a-	.
16CCLL]	16cc	.
16AAA-JJ)	16a-JJ	.
4.FFF	16ccLL>	pp
.	16a-	.
.	16cc	.
.	16a-	.
.	16cc	.
.	16a-JJ	.
4.FFF	16ccLL>	.
.	16a-	.
.	16cc	.
.	16a-	.
.	16cc	.
.	16a-JJ	.
=261	=261	=261
2.FFF	16ccLL>	.
.	16a-	.
.	16cc	.
.	16a-	.
.	16cc	.
.	16a-JJ	.
.	16ccLL>	.
.	16a-	.
.	16cc	.
.	16a-	.
.	16cc	.
.	16a-JJ	.
2.FFF	16ccLL>	.
.	16a-	.
.	16cc	.
.	16a-	.
.	16cc	.
.	16a-JJ	.
.	16ccLL>	.
.	16a-	.
.	16cc	.
.	16a-	.
.	16cc	.
.	16a-JJ	.
=262	=262	=262
1.FFF;	1.a-; 1.cc;	ppp
==	==	==
*-	*-	*-
!!!RDF**kern: > = above
!!!RDF**kern: < = below
!!!RDF**dynam: > = dim.
!!!verovio: beamFrenchStyle
!!!LOR: Durand 1915, plates 9327/9328, Paul Dukas, ed.
!!!PED: Dukas, Paul
!!!URL-github: https://github.com/craigsapp/beethoven-piano-sonatas/blob/main/kern/sonata23-1.krn
!!!URL-vhv: https://verovio.humdrum.org/?file=beethoven/sonatas/sonata23-1.krn
!!!URL-pdf: https://github.com/craigsapp/beethoven-piano-sonatas/blob/master/reference-edition/sonata23-1.pdf
!!!ENC: Craig Stuart Sapp
!!!END: 2004/07/01
!!!EED: Craig Stuart Sapp
!!!EEV: 2021/07/06
